!!!!SEGMENT: pl-sa--193-a-v-23--002_pausch-eugen--missa-in-c-gloria.krn
!!!cenid: 17xx:637
!!!COM: Pausch, Eugen
!!!COM-rismid: pe30002453
!!!CDT: 1758-1838
!!!CNT: German
!!!OTL: Missa in C – Gloria
!!!PDT:
!!!AGN: Sacred; Mass
!!!SMS-siglum: PL-SA
!!!SMS-shelfmark: 193/A V 23
!!!SMS-shelfwork: 001-002 M
!!!SMS-variant:
!!!SMS-altvar:
!!!NIFC-rismid: 1001036465
!!!URL-scan: http://bc.bdsandomierz.pl/dlibra/publication/1529/edition/1497/content
!!!ONB-nifc: UWAGA: części Mszy: Kyrie, Gloria, Credo, Sanctus, Benedictus,
**kern	**fba	**dynam	**kern	**dynam	**kern	**dynam	**kern	**text	**kern	**text	**kern	**kern	**kern	**kern
*part9	*	*part9	*part8	*part8	*part7	*part7	*part6	*part6	*part5	*part5	*part4	*part3	*part2	*part1
*	*	*	*group4	*	*group4	*	*group3	*	*group3	*	*group2	*group2	*group1	*group1
*staff9	*	*	*staff8	*	*staff7	*	*staff6	*staff6	*staff5	*staff5	*staff4	*staff3	*staff2	*staff1
*I"Organo.	*	*	*I"Violino 2do	*	*I"Violino 1mo	*	*I"Baſso	*	*I"Canto	*	*I"Cornu Secondo in C.	*I"Cornu Primo in C.	*I"Clarinetto vel Oboe 2do: in C.	*I"Clarinetto vel Oboe 1. in C
*I'Org	*	*	*I'Vl 2	*	*I'Vl 1	*	*I'B	*	*I'S	*	*I'Cor 2	*I'Cor 1	*I'Cl 2	*I'Cl 1
*clefF4	*	*	*clefG2	*	*clefG2	*	*clefF4	*	*clefC1	*	*clefG2	*clefG2	*clefG2	*clefG2
*k[]	*	*	*k[]	*	*k[]	*	*k[]	*	*k[]	*	*k[]	*k[]	*k[]	*k[]
*C:	*	*	*C:	*	*C:	*	*C:	*	*C:	*	*C:	*C:	*C:	*C:
*M3/4	*	*	*M3/4	*	*M3/4	*	*M3/4	*	*M3/4	*	*M3/4	*M3/4	*M3/4	*M3/4
=1	=1	=1	=1	=1	=1	=1	=1	=1	=1	=1	=1	=1	=1	=1
*	*	*	*	*	*	*below	*	*	*	*	*	*	*	*
!LO:TX:a:i:t=Allo&colon;	!	!	!LO:TX:a:i:t=Allo	!	!LO:TX:a:i:t=Allo&colon;	!LO:DY:rj	!LO:TX:b:t=P:problem:"G" przed kluczem	!	!LO:TX:b:t=P:problem:"G" przed kluczem	!	!LO:TX:a:t=P:problem:brak partii w źródle	!LO:TX:a:i:t=Allo&colon;	!LO:TX:a:i:t=Allo.	!LO:TX:a:i:t=Allo&colon;
!LO:TX:a:t=P:problem:b.c. jest tak pomazane, że nie daję głowy za jego poprawność	!	!	!	!	!	!	!	!	!	!	!	!	!	!
4C/	.	f	4cc 4e 4G/	.	4cc 4e 4G/	f	8.c\	[G]lo-	8.cc\	[G]lo-	2.ryy	4cc\	4e/	4ee\
.	.	.	.	.	.	.	16c\	-ri-	16cc\	-ri-	.	.	.	.
4r	.	.	4r	.	4r	.	4c\	-a	4cc\	-a	.	4r	4r	4r
!	!	!	!	!LO:DY:t=p	!	!	!	!	!	!	!	!	!	!
8C/L	-	p	8.g/L	p	8.b-X/L	p	4r	.	4r	.	.	4r	4r	4r
8C/J	7	.	.	.	.	.	.	.	.	.	.	.	.	.
.	.	.	32f/LL	.	32a/LL	.	.	.	.	.	.	.	.	.
.	.	.	32g/JJJ	.	32b-/JJJ	.	.	.	.	.	.	.	.	.
=2	=2	=2	=2	=2	=2	=2	=2	=2	=2	=2	=2	=2	=2	=2
!	!	!	!	!	!	!	!	!	!	!	!	!LO:TX:a:t=1.	!LO:TX:a:t=2	!LO:TX:a:t=2.
!	!	!	!	!	!	!	!	!	!	!	!	!	!LO:N:vis=0	!LO:N:vis=0
8C/L	6 4	.	8f/	.	8a/	.	4F\	in	4a\	in	2.ryy	2.r	1.r	1.r
8C/	.	.	8r	.	8r	.	.	.	.	.	.	.	.	.
8C/	4_ 2_	.	8a/	.	8ff\	.	4A\	.	4ff\	.	.	.	.	.
8C/	.	.	8r	.	8r	.	.	.	.	.	.	.	.	.
8C/	3 1	.	8g/	.	8ee\	.	4G\	ex-	4ee\	ex-	.	.	.	.
8C/J	.	.	8r	.	8r	.	.	.	.	.	.	.	.	.
=3	=3	=3	=3	=3	=3	=3	=3	=3	=3	=3	=3	=3	=3	=3
*tremolo	*	*	*	*	*	*	*	*	*	*	*	*	*	*
8C/L	4 5	.	8f/	.	8dd\	.	4F\	-cel-	4dd\	-cel-	2.ryy	4r	.	.
8C/	.	.	8r	.	8r	.	.	.	.	.	.	.	.	.
8C/	8 3	.	8e/	.	8cc\	.	4E\	.	4cc\	.	.	4r	.	.
8C/	.	.	8r	.	8r	.	.	.	.	.	.	.	.	.
8C/	7 2	.	8d/	.	8b\	.	4D\	-sis	4b\	-sis	.	4dd\	.	.
8C/J	.	.	8r	.	8r	.	.	.	.	.	.	.	.	.
=4	=4	=4	=4	=4	=4	=4	=4	=4	=4	=4	=4	=4	=4	=4
8C/L	8_ 3_	.	4e/	.	4cc\	.	8c\	De-	8cc\	De-	2.ryy	8.cc\L	4e/	4cc\
8C/	.	.	.	.	.	.	8C/	-o	8cc\	-o	.	.	.	.
.	.	.	.	.	.	.	.	.	.	.	.	16cc\Jk	.	.
8C/	.	.	8r	.	8r	f	4r	.	4r	.	.	4cc\	4cc\	4ee\
8C/	.	.	16cc\LL	.	16ee\LL	.	.	.	.	.	.	.	.	.
.	.	.	16dd\JJ	.	16ff\JJ	.	.	.	.	.	.	.	.	.
8C/	.	.	8ee\L	.	8gg\L	.	4c\	pax	4gg\	pax	.	4r	4ee\	4gg\
8C/J	.	.	8ee\J	.	8gg\J	.	.	.	.	.	.	.	.	.
=5	=5	=5	=5	=5	=5	=5	=5	=5	=5	=5	=5	=5	=5	=5
*	*	*	*	*	*	*	*2\right	*	*2\right	*	*	*2\right	*2\right	*2\right
*	*	*	*	*	*	*	*	*ij	*	*ij	*	*	*	*
8C/L	.	.	8ee\	.	8gg\	.	2.c\	pax	2.gg\	pax	2.ryy	2.gg\	2.ee\	2.gg\
*	*	*	*	*	*	*	*	*Xij	*	*Xij	*	*	*	*
8C/	.	.	4cc\	.	4ee\	.	.	.	.	.	.	.	.	.
8C/	.	.	.	.	.	.	.	.	.	.	.	.	.	.
8C/	.	.	4g/	.	4cc\	.	.	.	.	.	.	.	.	.
8C/	.	.	.	.	.	.	.	.	.	.	.	.	.	.
8C/J	X X	.	8e/	.	8g/	.	.	.	.	.	.	.	.	.
*Xtremolo	*	*	*	*	*	*	*	*	*	*	*	*	*	*
!	!	!	!	!	!LO:LB:g=original	!	!	!	!	!	!	!	!	!
=6	=6	=6	=6	=6	=6	=6	=6	=6	=6	=6	=6	=6	=6	=6
!LO:TX:t=P:problem:mixed beam	!	!	!	!	!	!	!	!	!	!	!	!	!	!
8F\L	6	.	8f/L	.	8a/L	.	4F\	ho-	8ff\L	ho-	2.ryy	8aa\L	8ff\L	8aa\L
8F\	.	.	16e/L	.	16g/L	.	.	.	16ee\L	.	.	16gg\L	16ee\L	16gg\L
.	.	.	16d/JJ	.	16f/JJ	.	.	.	16dd\JJ	.	.	16ff\JJ	16dd\JJ	16ff\JJ
!	!	!	!LO:LB:g=original	!	!	!	!	!	!	!	!	!	!	!
8G\	4	.	4c/	.	4e/	.	4G\	-mi-	4cc\	-mi-	.	4ee\	4cc\	4ee\
8G\	.	.	.	.	.	.	.	.	.	.	.	.	.	.
8GG/	.	.	4B/	.	4d/	.	4GG/	-ni-	4b\	-ni-	.	4dd\	4b\	4dd\
8GG/J	3	.	.	.	.	.	.	.	.	.	.	.	.	.
=7	=7	=7	=7	=7	=7	=7	=7	=7	=7	=7	=7	=7	=7	=7
4C/	.	.	4e 4G/	.	4c/	.	4C/	-bus	4cc\	-bus	2.ryy	4cc\	4cc\	4cc\
4r	.	.	4r	.	4r	.	4r	.	4r	.	.	4r	4r	4r
8C/L	-7	.	8.g/L	p	8.b-XT\L	p	4r	.	4r	.	.	4r	4r	4r
8C/J	.	.	.	.	.	.	.	.	.	.	.	.	.	.
.	.	.	32f/LL	.	32a\LL	.	.	.	.	.	.	.	.	.
.	.	.	32g/JJJ	.	32b-\JJJ	.	.	.	.	.	.	.	.	.
!	!	!	!	!	!	!	!LO:LB:g=original	!	!LO:LB:g=original	!	!	!	!	!
=8	=8	=8	=8	=8	=8	=8	=8	=8	=8	=8	=8	=8	=8	=8
!	!	!	!	!	!	!	!	!	!	!	!	!LO:TX:a:t=1.	!LO:TX:a:t=2	!LO:TX:a:t=2.
!	!	!	!	!	!	!	!	!	!	!	!	!	!LO:N:vis=0	!LO:N:vis=0
8C/L	6 4	.	8f/	.	8a/	.	(4F\	et	4b\	et	2.ryy	2.r	1.r	1.r
8C/J	.	.	8r	.	8r	.	.	.	.	.	.	.	.	.
*tremolo	*	*	*	*	*	*	*	*	*	*	*	*	*	*
8C/L	.	.	8a/	.	8ff\	.	4A\	.	4ff\	.	.	.	.	.
8C/	.	.	8r	.	8r	.	.	.	.	.	.	.	.	.
8C/	.	.	8g/	.	8ee\	.	4G\)	in	4ee\	in	.	.	.	.
8C/J	.	.	8r	.	8r	.	.	.	.	.	.	.	.	.
!LO:LB:g=original	!	!	!	!	!	!	!	!	!	!	!	!LO:LB:g=original	!	!
=9	=9	=9	=9	=9	=9	=9	=9	=9	=9	=9	=9	=9	=9	=9
8C/L	6 4	.	8f/	.	8dd\	.	4F\	ter-	4dd\	ter-	2.ryy	4r	.	.
8C/	.	.	8r	.	8r	.	.	.	.	.	.	.	.	.
8C/	.	.	8e/	.	8cc\	.	4E\	.	4cc\	.	.	4r	.	.
8C/	.	.	8r	.	8r	.	.	.	.	.	.	.	.	.
8C/	.	.	8d/	.	8b\	.	4D\	-ra	4b\	-ra	.	4dd\	.	.
8C/J	.	.	8r	.	8r	.	.	.	.	.	.	.	.	.
=10	=10	=10	=10	=10	=10	=10	=10	=10	=10	=10	=10	=10	=10	=10
!	!	!	!	!LO:DY:rj	!	!	!	!	!	!	!	!	!	!
8C/L	3	.	4e/	f	4cc\	f	4E\	pax	4cc\	pax	2.ryy	8dd\L	4e/	4cc\
8C/	.	.	.	.	.	.	.	.	.	.	.	8dd\J	.	.
8C/	.	.	8r	.	8r	.	4r	.	4r	.	.	4cc\	4cc\	4ee\
8C/	.	.	16cc\LL	.	16ee\LL	.	.	.	.	.	.	.	.	.
.	.	.	16dd\JJ	.	16ff\JJ	.	.	.	.	.	.	.	.	.
*	*	*	*	*	*	*	*	*ij	*	*	*	*	*	*
8C/	.	.	8ee\L	.	8gg\L	.	4c\	pax	4gg\	pax	.	4r	4ee\	4gg\
*	*	*	*	*	*	*	*	*Xij	*	*	*	*	*	*
8C/J	.	.	8ee\J	.	8gg\J	.	.	.	.	.	.	.	.	.
=11	=11	=11	=11	=11	=11	=11	=11	=11	=11	=11	=11	=11	=11	=11
8C/L	.	.	8ee\	.	8gg\	.	2c\	bo-	2gg\	bo-	2.ryy	2.gg\	2.ee\	2.gg\
8C/	.	.	4cc\	.	4ee\	.	.	.	.	.	.	.	.	.
8C/	.	.	.	.	.	.	.	.	.	.	.	.	.	.
8C/	.	.	4g/	.	4cc\	.	.	.	.	.	.	.	.	.
!	!	!	!	!	!	!	!LO:SIC:l:s=nae:v	!	!LO:SIC:l:s=nae:v	!	!	!	!	!
8C/	.	.	.	.	.	.	4C/	-ne	4gg\	-ne	.	.	.	.
8C/J	.	.	8e/	.	8g/	.	.	.	.	.	.	.	.	.
*Xtremolo	*	*	*	*	*	*	*	*	*	*	*	*	*	*
=12	=12	=12	=12	=12	=12	=12	=12	=12	=12	=12	=12	=12	=12	=12
!LO:TX:t=P:problem:mixed beam	!	!	!	!	!	!	!	!	!	!	!	!	!	!
8F\L	6	.	8f/L	.	8a/L	.	8F\	vo-	8ff\	vo-	2.ryy	8aa\L	4dd\	4ff\
8F\	.	.	16e/L	.	16g/L	.	8F\	-lun-	16ee\LL	-lun-	.	16gg\L	.	.
.	.	.	16d/JJ	.	16f/JJ	.	.	.	16dd\JJ	.	.	16ff\JJ	.	.
8G\	4	.	4c/	.	4e/	.	(4G\	.	4cc\	-ta-	.	4ee\	4cc\	4ee\
8G\	.	.	.	.	.	.	.	.	.	.	.	.	.	.
8GG/	3	.	4B/	.	4d/	.	4GG/)	-ta-	4b\	.	.	4dd\	4b\	4dd\
8GG/J	.	.	.	.	.	.	.	.	.	.	.	.	.	.
!	!	!	!	!	!LO:LB:g=original	!	!	!	!	!	!	!	!	!LO:LB:g=original
=13	=13	=13	=13	=13	=13	=13	=13	=13	=13	=13	=13	=13	=13	=13
*tremolo	*	*	*	*	*	*	*	*	*	*	*	*	*	*
!LO:TX:a:i:t=Tutti	!	!	!	!	!	!	!	!	!	!	!	!	!	!
8C/L	.	.	4c/	.	4c/	.	4C/	-tis	4cc\	-tis	2.ryy	2cc\	2.e/	2.cc\
8C/	.	.	.	.	.	.	.	.	.	.	.	.	.	.
8C/	.	.	8r	.	8r	.	4r	.	4r	.	.	.	.	.
8C/	.	.	8e/L	.	8cc\L	.	.	.	.	.	.	.	.	.
8C/	.	.	8e/	.	8cc\	.	4C/	Lau-	4ee\	Lau-	.	4r	.	.
8C/J	.	.	8e/J	.	8cc\J	.	.	.	.	.	.	.	.	.
!	!	!	!LO:LB:g=original	!	!	!	!	!	!	!	!	!	!	!
=14	=14	=14	=14	=14	=14	=14	=14	=14	=14	=14	=14	=14	=14	=14
8C/L	3	.	4e/	.	(8ee\L	.	2C/	-da-	2ee\	-da-	2.ryy	4cc\	2.cc\	2.ee\
8C/	.	.	.	.	8cc\)	.	.	.	.	.	.	.	.	.
8C/	8	.	8r	.	8cc'\	.	.	.	.	.	.	8cc\L	.	.
8C/	.	.	8cc\L	.	8ee'\	.	.	.	.	.	.	8cc\J	.	.
8C/	3_	.	8cc\	.	8ee'\	.	4C/	-mus	4ee\	-mus	.	4cc\	.	.
8C/J	.	.	8cc\J	.	8ee'\J	.	.	.	.	.	.	.	.	.
!	!	!	!	!	!	!	!	!	!	!	!	!	!LO:LB:g=original	!
=15	=15	=15	=15	=15	=15	=15	=15	=15	=15	=15	=15	=15	=15	=15
8C/L	5	.	8ee\L	.	(8gg\L	.	4C/	te	4ee\	te	2.ryy	4cc\	2.ee\	2.gg\
8C/	.	.	8cc\J	.	8ee\)	.	.	.	.	.	.	.	.	.
8C/	3	.	8cc\L	.	8ee'\	.	4C/	be-	4ee\	be-	.	8cc\L	.	.
8C/	.	.	8ee\	.	8gg'\	.	.	.	.	.	.	8cc\J	.	.
8C/	5	.	8ee\	.	8gg'\	.	4C/	-ne-	4ee\	-ne-	.	4cc\	.	.
8C/J	.	.	8ee\J	.	8gg'\J	.	.	.	.	.	.	.	.	.
=16	=16	=16	=16	=16	=16	=16	=16	=16	=16	=16	=16	=16	=16	=16
!	!	!	!LO:TX:t=P:problem:mixed beam	!	!	!	!	!	!	!	!	!	!	!
8C/L	5_	.	8ee\L	.	8ccc\	.	4.C/	-di-	4.ee\	-di-	2.ryy	4ee\	2ee\	2ccc\
8C/	.	.	8e/	.	4gg\	.	.	.	.	.	.	.	.	.
8C/	.	.	8e/	.	.	.	.	.	.	.	.	4ee\	.	.
8C/	.	.	8e/	.	4ee\	.	8C/	-ci-	8ee\	-ci-	.	.	.	.
8C/	.	.	8e/	.	.	.	4C/	-muſ	4ee\	-muſ	.	4ee\	4cc\	4ee\
8C/J	.	.	8e/J	.	8cc\	.	.	.	.	.	.	.	.	.
!	!	!	!	!	!	!	!LO:LB:g=original	!	!LO:LB:g=original	!	!	!	!	!
=17	=17	=17	=17	=17	=17	=17	=17	=17	=17	=17	=17	=17	=17	=17
*	*	*	*tremolo	*	*	*	*	*	*	*	*	*	*	*
8BB/L	6_	.	8d/L	.	4gg\	.	4BB/	te	4dd\	te	2.ryy	2dd\	2.g/	2.dd\
8BB/	.	.	8d/	.	.	.	.	.	.	.	.	.	.	.
8BB/	.	.	8d/	.	8r	.	4r	.	4r	.	.	.	.	.
8BB/	.	.	8d/	.	8dd\L	.	.	.	.	.	.	.	.	.
8BB/	.	.	8d/	.	8dd\	.	8B\	a-	8dd\	a-	.	4r	.	.
8BB/J	.	.	8d/J	.	8dd\J	.	8B\	-do-	8dd\	-do-	.	.	.	.
=18	=18	=18	=18	=18	=18	=18	=18	=18	=18	=18	=18	=18	=18	=18
8BB/L	.	.	8d/L	.	(8gg\L	.	2B\	-ra-	2dd\	-ra-	2.ryy	4dd\	2.dd\	2.gg\
8BB/	.	.	8d/	.	8dd\	.	.	.	.	.	.	.	.	.
8BB/	.	.	8d/	.	8dd')\	.	.	.	.	.	.	8dd\L	.	.
8BB/	.	.	8d/	.	8gg'\	.	.	.	.	.	.	8dd\J	.	.
!	!	!	!	!	!	!	!	!	!	!	!	!LO:LB:g=original	!	!
8BB/	.	.	8d/	.	8gg'\	.	4B\	-mus	4dd\	-mus	.	4dd\	.	.
8BB/J	.	.	8d/J	.	8gg'\J	.	.	.	.	.	.	.	.	.
=19	=19	=19	=19	=19	=19	=19	=19	=19	=19	=19	=19	=19	=19	=19
8BB/L	.	.	8d/L	.	(8bb\L	.	4.B\	te	4.dd\	te	2.ryy	4dd\	2.gg\	2.bb\
8BB/	.	.	8d/	.	8gg\	.	.	.	.	.	.	.	.	.
8BB/	.	.	8d/	.	8gg')\	.	.	.	.	.	.	8dd\L	.	.
8BB/	.	.	8d/	.	8bb'\	.	8B\	glo-	8dd\	glo-	.	8dd\J	.	.
8BB/	.	.	8d/	.	8bb'\	.	8B\	-ri-	8dd\	-ri-	.	4dd\	.	.
8BB/J	.	.	8d/J	.	8bb'\J	.	8B\	-fi-	8dd\	-fi-	.	.	.	.
=20	=20	=20	=20	=20	=20	=20	=20	=20	=20	=20	=20	=20	=20	=20
8BB/L	.	.	8d/L	.	8bb\	.	2B\	-ca-	2dd\	-ca-	2.ryy	4dd\	2.g/	2.dd\
8BB/	.	.	8d/	.	4gg\	.	.	.	.	.	.	.	.	.
8BB/	.	.	8d/	.	.	.	.	.	.	.	.	4dd\	.	.
8BB/	.	.	8d/	.	4dd\	.	.	.	.	.	.	.	.	.
8BB/	.	.	8d/	.	.	.	4B\	-mus	4dd\	-mus	.	4dd\	.	.
8BB/J	.	.	8d/J	.	8b\	.	.	.	.	.	.	.	.	.
!	!	!	!	!	!LO:LB:g=original	!	!	!	!	!	!	!	!	!
=21	=21	=21	=21	=21	=21	=21	=21	=21	=21	=21	=21	=21	=21	=21
*2\right	*	*	*	*	*	*	*	*	*	*	*	*	*	*
8F#X\L	6	.	8d/L	.	4aa\	.	4F#X\	te	4dd\	te	2.ryy	2dd\	2.a/	2.cc\
8F#X\	.	.	8d/	.	.	.	.	.	.	.	.	.	.	.
8F#X\	.	.	8d/	.	8r	.	4r	.	4r	.	.	.	.	.
8F#X\	.	.	8d/	.	8dd\L	.	.	.	.	.	.	.	.	.
8F#X\	.	.	8d/	.	8dd\	.	4r	.	4r	.	.	4r	.	.
8F#X\J	.	.	8d/J	.	8dd\J	.	.	.	.	.	.	.	.	.
=22	=22	=22	=22	=22	=22	=22	=22	=22	=22	=22	=22	=22	=22	=22
!LO:SIC:s=2.F#:v	!	!	!	!	!	!	!LO:SIC:s=4.F#:v	!	!	!	!	!	!	!
8F\L	.	.	8d/L	.	(8ff#X\L	.	4.F\	gra-	4.dd\	gra-	2.ryy	4dd\	2.cc\	2.ff#X\
8F\	.	.	8d/	.	8dd\	.	.	.	.	.	.	.	.	.
8F\	.	.	8d/	.	8dd')\	.	.	.	.	.	.	8dd\L	.	.
!	!	!	!	!	!	!	!LO:SIC:s=8F#:v	!	!	!	!	!	!	!
8F\	.	.	8d/J	.	8ff#'\	.	8F\	-ti-	8dd\	-ti-	.	8dd\J	.	.
*	*	*	*Xtremolo	*	*	*	*	*	*	*	*	*	*	*
!	!	!	!	!	!	!	!LO:SIC:s=4F#:v	!	!	!	!	!	!	!
8F\	.	.	8dd\L	.	8ff#'\	.	4F\	-as	4dd\	-as	.	4dd\	.	.
8F\J	.	.	8dd\J	.	8ff#'\J	.	.	.	.	.	.	.	.	.
!LO:LB:g=original	!	!	!	!	!	!	!	!	!	!	!	!	!	!
=23	=23	=23	=23	=23	=23	=23	=23	=23	=23	=23	=23	=23	=23	=23
!	!	!	!	!	!	!	!LO:SIC:s=4.F#:v	!	!	!	!	!	!	!
8F#X\L	.	.	8ff#X\L	.	(8aa\L	.	4.F\	a-	4.ff#X\	a-	2.ryy	4dd\	2.ff#X\	2.aa\
!	!	!	!	!	!LO:SIC:s=8ff#:v	!	!	!	!	!	!	!	!	!
8F#X\	.	.	8dd\J	.	8ff\	.	.	.	.	.	.	.	.	.
!	!	!	!	!	!LO:SIC:s=8ff#:v	!	!	!	!	!	!	!	!	!
8F#X\	.	.	8dd\L	.	8ff')\	.	.	.	.	.	.	8dd\L	.	.
!	!	!	!	!	!	!	!LO:SIC:s=8F#:v	!	!	!	!	!	!	!
8F#X\	.	.	8ff#\	.	8aa'\	.	8F\	-gi-	8ff#\	-gi-	.	8dd\J	.	.
!	!	!	!	!	!	!	!LO:SIC:s=4F#:v	!	!	!	!	!	!	!
8F#X\	.	.	8ff#\	.	8aa'\	.	4F\	-mus	4ff#\	-mus	.	4dd\	.	.
8F#X\J	.	.	8ff#\J	.	8aa'\J	.	.	.	.	.	.	.	.	.
=24	=24	=24	=24	=24	=24	=24	=24	=24	=24	=24	=24	=24	=24	=24
!	!	!	!LO:SIC:s=8ff#:v	!	!	!	!	!	!	!	!	!	!	!
8D\L	7	.	8ff 8a\	.	8cccn\	.	2.D\	ti-	2.aa\	ti-	2.ryy	4dd\	2.a/	2.cc\
!	!	!	!LO:SIC:s=4ff#:v	!	!	!	!	!	!	!	!	!	!	!
8D\	.	.	4ff 4a\	.	4aa\	.	.	.	.	.	.	.	.	.
8D\	.	.	.	.	.	.	.	.	.	.	.	4dd\	.	.
!	!	!	!LO:SIC:s=4ff#:v	!	!	!	!	!	!	!	!	!	!	!
8D\	.	.	4ff 4a\	.	4ff#X\	.	.	.	.	.	.	.	.	.
8D\	.	.	.	.	.	.	.	.	.	.	.	4dd\	.	.
!	!	!	!LO:SIC:s=8ff#:v	!	!	!	!	!	!	!	!	!	!	!
8D\J	.	.	8ff 8a\	.	8dd\	.	.	.	.	.	.	.	.	.
*Xtremolo	*	*	*	*	*	*	*	*	*	*	*	*	*	*
!	!	!	!LO:LB:g=original	!	!	!	!LO:LB:g=original	!	!	!	!	!	!	!
=25	=25	=25	=25	=25	=25	=25	=25	=25	=25	=25	=25	=25	=25	=25
4GG/	.	.	8gg\	.	8b\	.	4G\	-bi	4gg\	-bi	2.ryy	4cc\	4g/	4a\
.	.	.	8r	.	4dd\	.	.	.	.	.	.	.	.	.
8r	.	.	8r	.	.	.	8r	.	4dd\	pro-	.	4r	8rg	4dd\
!	!	!	!	!	!	!	!	!	!	!	!	!	!LO:TX:a:t=P:problem:u góry dopisana linia melodyczna	!
8G\L	3	.	8b\L	.	4dd\	.	8G\L	pro-	.	.	.	.	8b\L	.
8F#X\	6 3	.	8a\	.	.	.	8F#X\	.	4dd\	-pter	.	4r	8a\	4dd\
8G\J	3	.	8b\J	.	8dd\	.	8G\J	-pter	.	.	.	.	8b\J	.
!	!	!	!	!	!	!	!	!	!LO:LB:g=original	!	!	!	!	!
=26	=26	=26	=26	=26	=26	=26	=26	=26	=26	=26	=26	=26	=26	=26
!	!	!	!	!	!	!	!	!	!	!	!	!LO:TX:a:t=1.	!	!
8A\L	3	.	8cc\L	.	8dd\	.	8A\L	ma-	2dd\	ma-	2.ryy	2.r	8cc\L	2.dd\
8G\	3	.	8b\	.	4dd\	.	8G\	.	.	.	.	.	8b\	.
!LO:SIC:s=8F#:v	!	!	!	!	!	!	!	!	!	!	!	!	!	!
8F\	3	.	8a\	.	.	.	8F#X\	.	.	.	.	.	8a\	.
8G\	3	.	8b\	.	4dd\	.	8G\	.	.	.	.	.	8b\	.
8A\	3	.	8cc\	.	.	.	8A\	.	4dd\	-gna(m)	.	.	8cc\	.
!LO:SIC:s=8F#:v	!	!	!	!	!	!	!	!	!	!	!	!	!	!
8F\J	3	.	8a\J	.	8dd\	.	8F#\J	.	.	.	.	.	8a\J	.
!	!	!	!	!	!	!	!	!	!	!	!	!	!	!LO:LB:g=original
=27	=27	=27	=27	=27	=27	=27	=27	=27	=27	=27	=27	=27	=27	=27
4G\	.	.	4b\	.	8gg\	.	4G\	-gnam	4.dd\	glo-	2.ryy	4dd\	4b\	4dd\
.	.	.	.	.	4dd\	.	.	.	.	.	.	.	.	.
8r	.	.	8r	.	.	.	8r	.	.	.	.	4r	4dd\	8r
8G\L	5 3	.	8b\L	.	4dd\	.	8G\	glo-	8dd\	-ri-	.	.	.	8bb\L
!LO:SIC:s=8F#:v	!	!	!	!	!	!	!	!	!	!	!	!	!	!
8F\	6 5	.	8a\	.	.	.	8F#X\L	-ri-	4dd\	-am	.	4r	4dd\	8aa\
8G\J	.	.	8b\J	.	8dd\	.	8G\J	-am	.	.	.	.	.	8bb\J
!	!	!	!	!	!	!	!	!	!	!	!	!LO:LB:g=original	!	!
=28	=28	=28	=28	=28	=28	=28	=28	=28	=28	=28	=28	=28	=28	=28
!	!	!	!	!	!	!	!	!	!	!	!	!LO:TX:a:t=1.	!	!
8B\L	3_	.	8cc\L	.	8dd\	.	8A\L	tu-	2.dd\	tu-	2.ryy	2.r	2.dd\	8ccc\L
8A\	.	.	8b\	.	4dd\	.	8G\	.	.	.	.	.	.	8bb\
!	!	!	!	!	!	!	!LO:SIC:s=8F#:v	!	!	!	!	!	!	!
8F#X\	.	.	8a\	.	.	.	8F\	.	.	.	.	.	.	8aa\
8G\	.	.	8b\	.	4dd\	.	8G\	.	.	.	.	.	.	8bb\
8A\	.	.	8cc\	.	.	.	8A\	.	.	.	.	.	.	8ccc\
!	!	!	!	!	!	!	!LO:SIC:s=8F#:v	!	!	!	!	!	!	!
8F#\J	X	.	8a\J	.	8dd\	.	8F\J	.	.	.	.	.	.	8aa\J
!	!	!	!	!	!LO:LB:g=original	!	!	!	!	!	!	!	!	!
=29	=29	=29	=29	=29	=29	=29	=29	=29	=29	=29	=29	=29	=29	=29
!LO:TX:a:t=P:problem:takty 29-30 zapisane repetycją	!	!	!	!	!	!	!	!	!	!	!	!	!	!
4G\yy	.	.	4b\	.	8gg\	.	4G\	-am	4dd\	-am	2.ryy	4dd\	4dd\	4bb\
.	.	.	.	.	4dd\	.	.	.	.	.	.	.	.	.
8ryy	.	.	8r	.	.	.	8r	.	4dd\	Do-	.	4r	8r	4dd\
8G\Lyy	5 3	.	8b\L	.	4dd\	.	8G\	Do-	.	.	.	.	8b\L	.
!LO:SIC:s=8F#:v	!	!	!	!	!	!	!	!	!	!	!	!	!	!
8F\yy	6 5	.	8a\	.	.	.	8F\	-mi-	8dd\	-mi-	.	4r	8a\	4dd\
8G\Jyy	.	.	8b\J	.	8dd\	.	8G\	-ne	8dd\	-ne	.	.	8b\J	.
!	!	!	!	!	!	!	!	!	!	!	!	!	!LO:LB:g=original	!
=30	=30	=30	=30	=30	=30	=30	=30	=30	=30	=30	=30	=30	=30	=30
!	!	!	!	!	!	!	!	!	!	!	!	!LO:TX:a:t=1.	!	!
8B\Lyy	3_	.	8cc\L	.	8dd\	.	8A\L	De-	2dd\	De-	2.ryy	2.r	8cc\L	2.dd\
8A\yy	.	.	8b\	.	4dd\	.	8G\	.	.	.	.	.	8b\	.
!	!	!	!	!	!	!	!LO:SIC:s=8F#:v	!	!	!	!	!	!	!
8F#X\yy	.	.	8a\	.	.	.	8F\	.	.	.	.	.	8a\	.
8G\yy	.	.	8b\	.	4dd\	.	8G\	.	.	.	.	.	8b\	.
8A\yy	.	.	8cc\	.	.	.	8A\	.	4dd\	-us	.	.	8cc\	.
8F#\Jyy	X	.	8a\J	.	8dd\	.	8F\J	.	.	.	.	.	8a\J	.
!	!	!	!	!	!	!	!LO:LB:g=original	!	!	!	!	!	!	!
=31	=31	=31	=31	=31	=31	=31	=31	=31	=31	=31	=31	=31	=31	=31
4G\	.	.	8b\	.	8dd\	.	4G\	-us	4dd\	a-	2.ryy	2.dd\	4b\	4dd\
.	.	.	4b\	.	4gg\	.	.	.	.	.	.	.	.	.
4r	.	.	.	.	.	.	4B\	A-	4gg\	.	.	.	2dd\	4gg\
.	.	.	4b\	.	4gg\	.	.	.	.	.	.	.	.	.
4B\	6	.	.	.	.	.	4B\	-gnus	4ffn\	-gnus	.	.	.	4ffn\
.	5	.	8b\	.	8ffn\	.	.	.	.	.	.	.	.	.
=32	=32	=32	=32	=32	=32	=32	=32	=32	=32	=32	=32	=32	=32	=32
*	*	*	*^	*	*	*	*	*	*	*	*	*	*	*
4c\	.	.	8ryy	8dd\	.	8ee\	.	4c\	De-	2ee\	De-	2.ryy	4ee\	4cc\	4ee\
.	.	.	4ee/	4dd\	.	4gg#X\	.	.	.	.	.	.	.	.	.
8B\L	6\	.	.	.	.	.	.	2B\	-i	.	.	.	4r	2ee\	2gg#X\
8B\	.	.	4ee/	4dd\	.	4gg#\	.	.	.	.	.	.	.	.	.
8B\	.	.	.	.	.	.	.	.	.	4ee\	-i	.	4ee\	.	.
8B\J	.	.	8ee/	8dd\	.	8gg#\	.	.	.	.	.	.	.	.	.
!LO:LB:g=original	!	!	!LO:LB:g=original	!LO:LB:g=original	!	!	!	!	!	!	!	!	!	!	!
=33	=33	=33	=33	=33	=33	=33	=33	=33	=33	=33	=33	=33	=33	=33	=33
*	*	*	*tremolo	*tremolo	*	*tremolo	*	*	*	*	*	*	*	*	*
8A\L	n	.	16ee/LL	16cc\LL	.	16aa\LL	.	4A\	Fi-	4ee\	fi-	2.ryy	4ee\	4cc\	4aa\
.	.	.	16ee/	16cc\	.	16aa\	.	.	.	.	.	.	.	.	.
8A\	.	.	16ee/	16cc\	.	16aa\	.	.	.	.	.	.	.	.	.
.	.	.	16ee/JJ	16cc\JJ	.	16aa\JJ	.	.	.	.	.	.	.	.	.
8F#X\	6 5	.	16aa/LL	2ryy	.	16ccc\LL	.	4F#X\	-li-	8dd\	-li-	.	4r	4ee\	4ccc\
.	.	.	16aa/	.	.	16ccc\	.	.	.	.	.	.	.	.	.
8F#\	.	.	16aa/	.	.	16ccc\	.	.	.	8dd\	-us	.	.	.	.
.	.	.	16aa/JJ	.	.	16ccc\JJ	.	.	.	.	.	.	.	.	.
8G\	.	.	16gg/LL	.	.	16bb\LL	.	4G\	-us	4dd\	Pa-	.	4dd\	4dd\	4bb\
.	.	.	16gg/	.	.	16bb\	.	.	.	.	.	.	.	.	.
8G\J	.	.	16gg/	.	.	16bb\	.	.	.	.	.	.	.	.	.
.	.	.	16gg/JJ	.	.	16bb\JJ	.	.	.	.	.	.	.	.	.
*	*	*	*v	*v	*	*	*	*	*	*	*	*	*	*	*
=34	=34	=34	=34	=34	=34	=34	=34	=34	=34	=34	=34	=34	=34	=34
*tremolo	*	*	*2\right	*	*2\right	*	*	*	*	*	*	*	*	*
8C/L	6 5_	.	16gg\LL	.	16aa\LL	.	2C/	Pa-	2.ee\	-tris	2.ryy	4ee\	2cc\	2aa\
.	.	.	16gg\	.	16aa\	.	.	.	.	.	.	.	.	.
8C/	.	.	16gg\	.	16aa\	.	.	.	.	.	.	.	.	.
.	.	.	16gg\	.	16aa\	.	.	.	.	.	.	.	.	.
8C/	.	.	16gg\	.	16aa\	.	.	.	.	.	.	4r	.	.
.	.	.	16gg\	.	16aa\	.	.	.	.	.	.	.	.	.
8C/J	.	.	16gg\	.	16aa\	.	.	.	.	.	.	.	.	.
*Xtremolo	*	*	*	*	*	*	*	*	*	*	*	*	*	*
.	.	.	16gg\JJ	.	16aa\JJ	.	.	.	.	.	.	.	.	.
8C#X/L	.	.	16ee\LL	.	16gg\LL	.	4C#X/	.	.	.	.	4r	4b\	4gg\
.	X	.	16ee\	.	16gg\	.	.	.	.	.	.	.	.	.
8C#/J	.	.	16ee\	.	16gg\	.	.	.	.	.	.	.	.	.
.	.	.	16ee\JJ	.	16gg\JJ	.	.	.	.	.	.	.	.	.
!	!	!	!	!	!	!	!	!	!LO:LB:g=original	!	!	!	!	!
=35	=35	=35	=35	=35	=35	=35	=35	=35	=35	=35	=35	=35	=35	=35
8D/L	.	.	8dd\L	.	8ff#X'\L	.	4D\	-tris	4dd\	-tris	2.ryy	4dd\	4a/	4ff#X\
8D/J	.	.	8dd\	.	8dd'\	.	.	.	.	.	.	.	.	.
8BB/L	.	.	8b\	.	8b'\	.	4r	.	4r	.	.	4r	2b/	2gg\
8D/	.	.	8dd\	.	8dd'\	.	.	.	.	.	.	.	.	.
8BB/	.	.	8b\	.	8b'\	.	4r	.	4r	.	.	4r	.	.
8GG/J	.	.	8g\J	.	8g'\J	.	.	.	.	.	.	.	.	.
=36	=36	=36	=36	=36	=36	=36	=36	=36	=36	=36	=36	=36	=36	=36
!	!	!	!	!	!LO:TX:t=P:problem:mixed beam	!	!LO:N:vis=0	!	!LO:N:vis=0	!	!	!	!	!LO:SIC:s=4ff#:v
8D/L	.	.	8d/L	.	8d'/L	.	1.r	.	1.r	.	2.ryy	4dd\	4a/	4ff\
8D/	.	.	8d/	.	8dd'\	.	.	.	.	.	.	.	.	.
8BB/	.	.	8B/	.	8b'\	.	.	.	.	.	.	4r	2b/	2gg\
8D/	.	.	8d/	.	8dd'\	.	.	.	.	.	.	.	.	.
8BB/	.	.	8B/	.	8b'\	.	.	.	.	.	.	4r	.	.
8GG/J	.	.	8G/J	.	8g'\J	.	.	.	.	.	.	.	.	.
=37	=37	=37	=37	=37	=37	=37	=37	=37	=37	=37	=37	=37	=37	=37
*	*	*	*	*	*	*	*	*	*	*	*	*tremolo	*	*
!LO:TX:t=P:problem:mixed beam	!	!	!	!	!LO:TX:t=P:problem:mixed beam	!	!	!	!	!	!	!	!	!LO:SIC:s=4ff#:v
8D\L	.	.	8d/L	.	8dd\L	.	.	.	.	.	2.ryy	8dd\L	4a/	4ff\
8DD/J	.	.	8d/	.	8d/J	.	.	.	.	.	.	8dd\	.	.
*tremolo	*	*	*	*	*	*	*	*	*	*	*	*	*	*
!	!	!	!	!	!	!	!	!	!	!	!	!	!	!LO:SIC:s=4ff#:v
8DD/L	.	.	8d/	.	8d/L	.	.	.	.	.	.	8dd\	4dd\	4ff\
8DD/	.	.	8d/	.	8d/	.	.	.	.	.	.	8dd\	.	.
8DD/	.	.	8d/	.	8d/	.	.	.	.	.	.	8dd\	4ff#X\	4aa\
8DD/J	.	.	8d/J	.	8d/J	.	.	.	.	.	.	8dd\J	.	.
*	*	*	*Xtremolo	*	*Xtremolo	*	*	*	*	*	*	*Xtremolo	*	*
!	!	!	!	!	!LO:LB:g=original	!	!	!	!	!	!	!	!	!
=38	=38	=38	=38	=38	=38	=38	=38	=38	=38	=38	=38	=38	=38	=38
!	!	!	!	!	!	!	!	!	!	!	!	!	!	!LO:SIC:s=4ff#:v
4DD/	.	.	4d/	.	4d/	.	2.r	.	2.r	.	2.ryy	4dd\	4dd\	4ff\
4r	.	.	4r	.	4r	.	.	.	.	.	.	4r	4r	4r
4r	.	.	4r	.	4r	.	.	.	.	.	.	4r	4r	4r
!	!	!	!	!	!	!	!	!	!	!	!	!LO:LB:g=original	!	!LO:LB:g=original
=39	=39	=39	=39	=39	=39	=39	=39	=39	=39	=39	=39	=39	=39	=39
!	!	!LO:DY:rj	!LO:TX:a:t=6.	!	!LO:TX:a:t=6.	!	!	!	!LO:TX:a:i:t=Solo	!	!	!LO:TX:a:t=20	!	!
!	!	!	!LO:N:vis=00	!	!LO:N:vis=00	!	!	!	!	!	!	!LO:N:vis=00	!	!
8GG/L	.	p	0.r	.	0.r	.	2.G\	Qui	2.g\	Qui	2.ryy	0.r	2.g/	2.g/
8GG/	.	.	.	.	.	.	.	.	.	.	.	.	.	.
8GG/	.	.	.	.	.	.	.	.	.	.	.	.	.	.
8GG/	.	.	.	.	.	.	.	.	.	.	.	.	.	.
8GG/	.	.	.	.	.	.	.	.	.	.	.	.	.	.
8GG/J	.	.	.	.	.	.	.	.	.	.	.	.	.	.
=40	=40	=40	=40	=40	=40	=40	=40	=40	=40	=40	=40	=40	=40	=40
8GG/L	3	.	.	.	.	.	2.F#X\	tol-	2.a\	tol-	2.ryy	.	2.f#X/	2.a/
8GG/	.	.	.	.	.	.	.	.	.	.	.	.	.	.
8GG/	.	.	.	.	.	.	.	.	.	.	.	.	.	.
8GG/	.	.	.	.	.	.	.	.	.	.	.	.	.	.
8GG/	.	.	.	.	.	.	.	.	.	.	.	.	.	.
8GG/J	.	.	.	.	.	.	.	.	.	.	.	.	.	.
=41	=41	=41	=41	=41	=41	=41	=41	=41	=41	=41	=41	=41	=41	=41
8GG/L	3	.	.	.	.	.	2.G\	-lis	2.b\	-lis	2.ryy	.	2.g/	2.b\
8GG/	.	.	.	.	.	.	.	.	.	.	.	.	.	.
8GG/	.	.	.	.	.	.	.	.	.	.	.	.	.	.
8GG/	.	.	.	.	.	.	.	.	.	.	.	.	.	.
8GG/	.	.	.	.	.	.	.	.	.	.	.	.	.	.
8GG/J	.	.	.	.	.	.	.	.	.	.	.	.	.	.
=42	=42	=42	=42	=42	=42	=42	=42	=42	=42	=42	=42	=42	=42	=42
8GG/L	4 2	.	.	.	.	.	2.A\	pec-	2.cc\	pec-	2.ryy	.	2.a/	2.cc\
8GG/	.	.	.	.	.	.	.	.	.	.	.	.	.	.
8GG/	.	.	.	.	.	.	.	.	.	.	.	.	.	.
8GG/	.	.	.	.	.	.	.	.	.	.	.	.	.	.
8GG/	.	.	.	.	.	.	.	.	.	.	.	.	.	.
8GG/J	.	.	.	.	.	.	.	.	.	.	.	.	.	.
!LO:LB:g=original	!	!	!	!	!	!	!	!	!	!	!	!	!	!
=43	=43	=43	=43	=43	=43	=43	=43	=43	=43	=43	=43	=43	=43	=43
!	!	!	!LO:N:vis=0	!	!LO:N:vis=0	!	!	!	!	!	!	!LO:N:vis=00	!	!
8GG/L	5 3	.	1.r	.	1.r	.	2B\	-ca-	2dd\	-ca-	2.ryy	0.r	2.b\	2.dd\
8GG/	.	.	.	.	.	.	.	.	.	.	.	.	.	.
8GG/	.	.	.	.	.	.	.	.	.	.	.	.	.	.
8GG/	.	.	.	.	.	.	.	.	.	.	.	.	.	.
8GG/	.	.	.	.	.	.	4B\	-ta	4dd\	-ta	.	.	.	.
8GG/J	.	.	.	.	.	.	.	.	.	.	.	.	.	.
!	!	!	!	!	!	!	!LO:LB:g=original	!	!	!	!	!	!	!
=44	=44	=44	=44	=44	=44	=44	=44	=44	=44	=44	=44	=44	=44	=44
8GG/L	6 4	.	.	.	.	.	2c\	mun-	2ee\	mun-	2.ryy	.	2cc\	2ee\
8GG/	.	.	.	.	.	.	.	.	.	.	.	.	.	.
8GG/	.	.	.	.	.	.	.	.	.	.	.	.	.	.
8GG/J	.	.	.	.	.	.	.	.	.	.	.	.	.	.
*Xtremolo	*	*	*	*	*	*	*	*	*	*	*	*	*	*
8GG/L	4 2	.	.	.	.	.	4A\	.	4ff#X\	.	.	.	4a\	4ff#X\
8GG/J	.	.	.	.	.	.	.	.	.	.	.	.	.	.
!	!	!	!	!	!	!	!	!	!	!	!	!	!LO:LB:g=original	!
=45	=45	=45	=45	=45	=45	=45	=45	=45	=45	=45	=45	=45	=45	=45
4GG/	.	.	4r	.	4r	p	4B\	-di	4gg\	-di	2.ryy	.	4b\	4gg\
4r	.	.	4ddd\	p	4ddd\	.	4B\	Mi-	4dd\	Mi-	.	.	4b\	4dd\
4r	.	.	4ddd\	.	4ddd\	.	4B\	-ſe-	4dd\	-ſe-	.	.	4b\	4dd\
=46	=46	=46	=46	=46	=46	=46	=46	=46	=46	=46	=46	=46	=46	=46
*	*	*	*2\right	*	*2\right	*	*	*	*	*	*	*	*	*
!	!	!	!	!	!	!	!	!	!	!	!	!	!LO:TX:a:t=h	!
!	!	!	!	!	!	!	!	!	!	!	!	!	!LO:SIC:s=2b:v	!
4r	.	.	2bb\	.	2ddd\	.	2B\	-re-	2dd\	-re-	2.ryy	.	2cc\	2ee\
4r	.	.	.	.	.	.	.	.	.	.	.	.	.	.
!	!	!	!	!	!	!	!	!	!	!	!	!	!LO:TX:a:t=g	!
!	!	!	!	!	!	!	!	!	!	!	!	!	!LO:SIC:s=4g:v	!
4E\	#	.	4gg\	.	4ddd\	.	4G\	-re	4dd\	-re	.	.	4a\	4b\
=47	=47	=47	=47	=47	=47	=47	=47	=47	=47	=47	=47	=47	=47	=47
!	!	!	!	!	!	!	!	!	!	!	!	!LO:N:vis=00	!	!
4C\	6	.	4r	.	4r	.	4r	.	4r	.	2.ryy	0.r	4r	4r
4r	.	.	4ee\	.	4ccc\	.	4E\	mi-	4cc\	mi-	.	.	4e/	4cc\
4r	.	.	4ee\	.	4ccc\	.	4E\	-ſe-	4cc\	-ſe-	.	.	4e/	4cc\
!	!	!	!	!	!	!	!	!	!LO:LB:g=original	!	!	!	!	!
=48	=48	=48	=48	=48	=48	=48	=48	=48	=48	=48	=48	=48	=48	=48
4r	.	.	4ee\	.	4ccc\	.	4E\	-re-	4cc\	-re	2.ryy	.	2e/	2cc\
!	!	!	!	!	!	!	!	!	!LO:SIC:l:s=-re:v	!	!	!	!	!
4r	.	.	4cc\	.	4aa\	.	4C\	-re	4a\	no-	.	.	.	.
!	!	!	!	!	!	!	!	!	!LO:SIC:l:s=no-:v	!	!	!	!	!
4D\	#	.	4a\	.	4ff#X\	.	4D\	no-	4f#X/	.	.	.	4f#X/	4a/
!	!	!	!LO:LB:g=original	!	!	!	!	!	!	!	!	!	!	!
=49	=49	=49	=49	=49	=49	=49	=49	=49	=49	=49	=49	=49	=49	=49
*tremolo	*	*	*	*	*	*	*	*	*	*	*	*	*	*
8GG/L	7n 5	.	4b\	.	4gg\	.	2G\	-bis	4g\	-biſ	2.ryy	.	2.g/	2.g/
8GG/	.	.	.	.	.	.	.	.	.	.	.	.	.	.
8GG/	.	.	4r	.	4r	.	.	.	2g\	Qui	.	.	.	.
8GG/	.	.	.	.	.	.	.	.	.	.	.	.	.	.
8GG/	.	.	4r	.	4r	.	4G\	Qui	.	.	.	.	.	.
8GG/J	.	.	.	.	.	.	.	.	.	.	.	.	.	.
=50	=50	=50	=50	=50	=50	=50	=50	=50	=50	=50	=50	=50	=50	=50
!	!	!	!LO:TX:a:t=5	!	!LO:TX:a:t=5	!	!	!	!	!	!	!	!	!
!	!	!	!LO:N:vis=00	!	!LO:N:vis=00	!	!	!	!	!	!	!	!	!
8GG/L	6 4	.	0.r	.	0.r	.	2.F#X\	tol-	2.a\	tol-	2.ryy	.	2.f#X/	2.a/
8GG/	.	.	.	.	.	.	.	.	.	.	.	.	.	.
8GG/	.	.	.	.	.	.	.	.	.	.	.	.	.	.
8GG/	.	.	.	.	.	.	.	.	.	.	.	.	.	.
8GG/	.	.	.	.	.	.	.	.	.	.	.	.	.	.
8GG/J	.	.	.	.	.	.	.	.	.	.	.	.	.	.
=51	=51	=51	=51	=51	=51	=51	=51	=51	=51	=51	=51	=51	=51	=51
!	!	!	!	!	!	!	!	!	!	!	!	!LO:N:vis=00	!	!
8GG/L	4 2	.	.	.	.	.	2.G\	-lis	2.b\	-lis	2.ryy	0.r	2.g/	2.b\
8GG/	.	.	.	.	.	.	.	.	.	.	.	.	.	.
8GG/	.	.	.	.	.	.	.	.	.	.	.	.	.	.
8GG/	.	.	.	.	.	.	.	.	.	.	.	.	.	.
8GG/	.	.	.	.	.	.	.	.	.	.	.	.	.	.
8GG/J	.	.	.	.	.	.	.	.	.	.	.	.	.	.
=52	=52	=52	=52	=52	=52	=52	=52	=52	=52	=52	=52	=52	=52	=52
8GG/L	5 3	.	.	.	.	.	2.A\	pec-	2.cc\	pec-	2.ryy	.	2.a/	2.cc\
8GG/	.	.	.	.	.	.	.	.	.	.	.	.	.	.
8GG/	.	.	.	.	.	.	.	.	.	.	.	.	.	.
8GG/	.	.	.	.	.	.	.	.	.	.	.	.	.	.
8GG/	.	.	.	.	.	.	.	.	.	.	.	.	.	.
8GG/J	.	.	.	.	.	.	.	.	.	.	.	.	.	.
=53	=53	=53	=53	=53	=53	=53	=53	=53	=53	=53	=53	=53	=53	=53
8GG/L	7n 5	.	.	.	.	.	2B\	-ca-	2dd\	-ca-	2.ryy	.	2.b\	2.dd\
8GG/	.	.	.	.	.	.	.	.	.	.	.	.	.	.
8GG/	.	.	.	.	.	.	.	.	.	.	.	.	.	.
8GG/	.	.	.	.	.	.	.	.	.	.	.	.	.	.
8GG/	.	.	.	.	.	.	4B\	-ta	4dd\	-ta	.	.	.	.
8GG/J	.	.	.	.	.	.	.	.	.	.	.	.	.	.
!LO:LB:g=original	!	!	!	!	!	!	!	!	!	!	!	!	!	!LO:LB:g=original
=54	=54	=54	=54	=54	=54	=54	=54	=54	=54	=54	=54	=54	=54	=54
8GG/L	6 4	.	2.r	.	2.r	.	2c\	mun-	2ee\	mun-	2.ryy	.	2cc\	2ee\
8GG/	.	.	.	.	.	.	.	.	.	.	.	.	.	.
8GG/	.	.	.	.	.	.	.	.	.	.	.	.	.	.
8GG/J	.	.	.	.	.	.	.	.	.	.	.	.	.	.
*Xtremolo	*	*	*	*	*	*	*	*	*	*	*	*	*	*
8GG/L	5 3	.	.	.	.	.	4A\	.	4ff#X\	.	.	.	4a/	4ff#X\
8GG/J	.	.	.	.	.	.	.	.	.	.	.	.	.	.
=55	=55	=55	=55	=55	=55	=55	=55	=55	=55	=55	=55	=55	=55	=55
!	!	!	!	!	!	!	!	!	!	!	!	!LO:N:vis=00	!	!
4GG/	.	.	4r	.	4r	.	4B\	-di	4gg\	-di	2.ryy	0.r	4b\	4gg\
!	!	!	!	!	!	!	!LO:LB:g=original	!	!	!	!	!	!	!
4r	.	.	4bb\	.	4ddd\	p	4B\	Sus-	4dd\	Sus-	.	.	4r	4r
4r	.	.	4bb\	.	4ddd\	.	8B\	-ci-	8dd\	-ci-	.	.	4r	4r
.	.	.	.	.	.	.	8B\	-pe	8dd\	-pe	.	.	.	.
=56	=56	=56	=56	=56	=56	=56	=56	=56	=56	=56	=56	=56	=56	=56
!	!	!	!	!	!	!	!	!	!	!	!	!	!	!LO:TX:a:t=P:problem:takty 56-57 dopisane na górze
4r	.	.	2bb\	.	2ddd\	.	2B\	de-	2dd\	de-	2.ryy	.	4r	2ee\
4r	.	.	.	.	.	.	.	.	.	.	.	.	4b\	.
4E\	#	.	4gg\	.	4bb\	.	4G\	-pre-	4b\	-pre-	.	.	4g\	4b\
=57	=57	=57	=57	=57	=57	=57	=57	=57	=57	=57	=57	=57	=57	=57
4C/	6	.	4r	.	4r	.	8A\	-ca-	8cc\	-ca-	2.ryy	.	4e/	4r
.	.	.	.	.	.	.	8A\	-ti-	8cc\	-ti-	.	.	.	.
4r	.	.	4ee\	.	4ccc\	.	4A\	-o-	4cc\	-on-	.	.	4r	4cc\
4r	.	.	4ee\	.	4ccc\	.	4A\	-nem	4cc\	-em	.	.	4r	4cc\
!	!	!	!	!	!LO:LB:g=original	!	!	!	!LO:LB:g=original	!	!	!	!	!
=58	=58	=58	=58	=58	=58	=58	=58	=58	=58	=58	=58	=58	=58	=58
4r	.	.	4ee\	.	4ccc\	.	4A\	no-	4cc\	no-	2.ryy	.	4r	4r
4r	.	.	4cc\	.	4aa\	.	4F#X\	.	4b\	.	.	.	4a/	4cc\
4D\	.	.	4a\	.	4ff#X\	.	4D\	.	4f#X/	.	.	.	4f#X/	4a\
=59	=59	=59	=59	=59	=59	=59	=59	=59	=59	=59	=59	=59	=59	=59
*tremolo	*	*	*	*	*	*	*	*	*	*	*	*	*	*
8GG/L	.	.	4b\	.	4gg\	.	4G\	-stram	4g\	-stram	2.ryy	2.g/	4g/	4b\
8GG/	.	.	.	.	.	.	.	.	.	.	.	.	.	.
8GG/	.	.	4r	.	4r	.	4r	.	4r	.	.	.	4g/	4b\
8GG/	.	.	.	.	.	.	.	.	.	.	.	.	.	.
8GG/	.	.	4r	.	4r	.	4r	.	4r	.	.	.	4b/	4dd\
8GG/J	.	.	.	.	.	.	.	.	.	.	.	.	.	.
!	!	!	!	!	!	!	!	!	!	!	!	!	!LO:LB:g=original	!
=60	=60	=60	=60	=60	=60	=60	=60	=60	=60	=60	=60	=60	=60	=60
!	!	!	!	!LO:DY:t=f	!	!	!	!	!	!	!	!	!	!
8GG/L	7n 5	.	16dd\LL	f	16ffn\LL	f	2.G\	qui	2.ffn\	qui	2.ryy	2.g/	2.dd\	2.ffn\
.	.	.	16ee\J	.	16gg\J	.	.	.	.	.	.	.	.	.
8GG/	.	.	8dd\J	.	8ff\J	.	.	.	.	.	.	.	.	.
8GG/	.	.	8r	.	8r	p	.	.	.	.	.	.	.	.
8GG/	.	.	8dd\L	p	8ff\L	.	.	.	.	.	.	.	.	.
8GG/	.	.	8dd\	.	8ff\	.	.	.	.	.	.	.	.	.
8GG/J	.	.	8dd\J	.	8ff\J	.	.	.	.	.	.	.	.	.
=61	=61	=61	=61	=61	=61	=61	=61	=61	=61	=61	=61	=61	=61	=61
8GG/L	6 4	.	8cc\L	.	8ee\L	.	4G\	se-	4ee\	se-	2.ryy	2.g/	2.cc\	2.ee\
8GG/	.	.	8cc\J	.	8ee\J	.	.	.	.	.	.	.	.	.
8GG/	.	.	4cc\	.	4ee\	.	4G\	-des	4ee\	-de	.	.	.	.
8GG/	.	.	.	.	.	.	.	.	.	.	.	.	.	.
8GG/	.	.	4r	.	4r	.	4G\	ad	4ee\	ad	.	.	.	.
8GG/J	.	.	.	.	.	.	.	.	.	.	.	.	.	.
=62	=62	=62	=62	=62	=62	=62	=62	=62	=62	=62	=62	=62	=62	=62
*	*	*	*	*	*^	*	*	*	*	*	*	*	*	*
!	!	!	!	!LO:DY:rj:t=f	!	!	!	!	!	!	!	!	!	!	!
8GG/L	4 2	.	8cc/ 8d/	f	2.ff#X/	8a\	.	4.G\	dex-	4ff#X\	dex-	2.ryy	2.g/	2.a/	2.ff#X\
8GG/	.	.	4cc/ 4d/	.	.	4a\	.	.	.	.	.	.	.	.	.
8GG/	.	.	.	.	.	.	.	.	.	4ff#\	-te-	.	.	.	.
8GG/	.	.	4cc/ 4d/	.	.	4a\	.	8G\	-te-	.	.	.	.	.	.
8GG/	.	.	.	.	.	.	.	4G\	-ra(m)	4ff#\	-ram	.	.	.	.
8GG/J	.	.	8cc/ 8d/	.	.	8a\	.	.	.	.	.	.	.	.	.
*	*	*	*	*	*v	*v	*	*	*	*	*	*	*	*	*
!	!	!	!LO:LB:g=original	!	!	!	!	!	!	!	!	!	!	!
=63	=63	=63	=63	=63	=63	=63	=63	=63	=63	=63	=63	=63	=63	=63
8GG/L	5 3	.	4b\	.	4gg\	.	4G\	pa-	4gg\	Pa-	2.ryy	4g/	2.b\	2.gg\
8GG/	.	.	.	.	.	.	.	.	.	.	.	.	.	.
*	*	*	*	*	*	*	*	*	*	*	*	*tremolo	*	*
8GG/	.	.	4b\	.	4g/	.	4GG/	-tris	4g\	-tris	.	8g/L	.	.
8GG/	.	.	.	.	.	.	.	.	.	.	.	8g\	.	.
8GG/	.	.	4r	.	4r	.	4r	.	4r	.	.	8g\	.	.
8GG/J	.	.	.	.	.	.	.	.	.	.	.	8g\J	.	.
!	!	!	!	!	!	!	!LO:LB:g=original	!	!	!	!	!	!	!
=64	=64	=64	=64	=64	=64	=64	=64	=64	=64	=64	=64	=64	=64	=64
!	!	!	!LO:TX:a:t=P:problem:takty 64-67 zapisane repetycją, łuk na górze	!LO:DY:t=f	!	!	!	!	!	!	!	!	!	!
8GG/L	7n 5	.	16dd\LLyy	f	16ffn\LL	f	2G\	mi-	2ffn\	mi-	2.ryy	2.g/	4dd\	4ffn\
.	.	.	16ee\Jyy	.	16gg\J	.	.	.	.	.	.	.	.	.
8GG/	.	.	8dd\Jyy	.	8ff\J	.	.	.	.	.	.	.	.	.
8GG/	.	.	8ryy	.	8r	.	.	.	.	.	.	.	4r	4r
8GG/	.	.	8dd\Lyy	p	8ff\L	p	.	.	.	.	.	.	.	.
8GG/	.	.	8dd\yy	.	8ff\	.	4G\	-ſe-	4ff\	-ſe-	.	.	4r	4r
8GG/J	.	.	8dd\Jyy	.	8ff\J	.	.	.	.	.	.	.	.	.
=65	=65	=65	=65	=65	=65	=65	=65	=65	=65	=65	=65	=65	=65	=65
8GG/L	6 4	.	8cc\Lyy	.	8ee\L	.	2G\	-re-	2ee\	-re-	2.ryy	2.g/	4cc\	4ee\
8GG/	.	.	8cc\Jyy	.	8ee\J	.	.	.	.	.	.	.	.	.
8GG/	.	.	4cc\yy	.	4ee\	.	.	.	.	.	.	.	4r	4r
8GG/	.	.	.	.	.	.	.	.	.	.	.	.	.	.
8GG/	.	.	4ryy	.	4r	.	4G\	-re	4ee\	-re	.	.	4r	4r
8GG/J	.	.	.	.	.	.	.	.	.	.	.	.	.	.
!LO:LB:g=original	!	!	!	!	!LO:LB:g=original	!	!	!	!	!	!	!	!	!
=66	=66	=66	=66	=66	=66	=66	=66	=66	=66	=66	=66	=66	=66	=66
*	*	*	*	*	*^	*	*	*	*	*	*	*	*	*
!	!	!	!	!LO:DY:rj:t=f	!	!	!	!	!	!	!	!	!	!	!
8GG/L	7 2	.	8cc/yy 8d/yy	f	2.ff#X/	8a\	.	2.G\	no-	2.ff#X\	no-	2.ryy	2.g/	4a/	4cc\
8GG/	.	.	4cc/yy 4d/yy	.	.	4a\	.	.	.	.	.	.	.	.	.
8GG/	.	.	.	.	.	.	.	.	.	.	.	.	.	4r	4r
8GG/	.	.	4cc/yy 4d/yy	.	.	4a\	.	.	.	.	.	.	.	.	.
8GG/	.	.	.	.	.	.	.	.	.	.	.	.	.	4r	4r
8GG/J	.	.	8cc/yy 8d/yy	.	.	8a\	.	.	.	.	.	.	.	.	.
*	*	*	*	*	*v	*v	*	*	*	*	*	*	*	*	*
!	!	!	!LO:LB:g=original	!	!	!	!	!	!	!	!	!	!	!
=67	=67	=67	=67	=67	=67	=67	=67	=67	=67	=67	=67	=67	=67	=67
8GG/L	5 3	.	4b\yy	.	4gg\	.	4G\	-bis	4gg\	-bis	2.ryy	4g/	4g/	4b\
8GG/	.	.	.	.	.	.	.	.	.	.	.	.	.	.
8GG/	.	.	4b\yy	.	4g/	.	4r	.	4r	.	.	8g/L	4r	4r
8GG/	.	.	.	.	.	.	.	.	.	.	.	8g\	.	.
8GG/	.	.	4ryy	.	4r	.	4r	.	4r	.	.	8g\	4r	4r
8GG/J	.	.	.	.	.	.	.	.	.	.	.	8g\J	.	.
!	!	!	!	!	!	!	!	!	!LO:LB:g=original	!	!	!	!	!
=68	=68	=68	=68	=68	=68	=68	=68	=68	=68	=68	=68	=68	=68	=68
!	!	!	!	!LO:DY:t=p	!	!	!LO:N:vis=00	!	!LO:N:vis=00	!	!	!	!	!
8GG/L	7	.	2dd\	p	2ffn\	p	0.r	.	0.r	.	2.ryy	2.g/	2dd\	2ff\
8GG/	.	.	.	.	.	.	.	.	.	.	.	.	.	.
8GG/	6	.	.	.	.	.	.	.	.	.	.	.	.	.
8GG/	.	.	.	.	.	.	.	.	.	.	.	.	.	.
8GG/	7	.	8cc\L	.	8ee\L	.	.	.	.	.	.	.	4cc\	8ee\L
8GG/J	.	.	8dd\J	.	8ff\J	.	.	.	.	.	.	.	.	8ff\J
!	!	!	!	!	!	!	!	!	!	!	!	!	!	!LO:LB:g=original
=69	=69	=69	=69	=69	=69	=69	=69	=69	=69	=69	=69	=69	=69	=69
!	!	!	!	!	!	!	!	!	!	!	!	!	!	!LO:TX:a:t=P:problem:brak taktu
8GG/L	6 4	.	4cc\	.	4ee\	.	.	.	.	.	2.ryy	2.g/	4cc\	2.ryy
8GG/	.	.	.	.	.	.	.	.	.	.	.	.	.	.
8GG/	5 3	.	4b\	.	4dd\	.	.	.	.	.	.	.	4b\	.
8GG/	.	.	.	.	.	.	.	.	.	.	.	.	.	.
8GG/	4 2	.	4a\	.	4cc\	.	.	.	.	.	.	.	4a\	.
8GG/J	.	.	.	.	.	.	.	.	.	.	.	.	.	.
=70	=70	=70	=70	=70	=70	=70	=70	=70	=70	=70	=70	=70	=70	=70
8GG/L	3 1	.	4g/	.	4b\	.	.	.	.	.	2.ryy	2.g/	4g/	4ee\
8GG/	.	.	.	.	.	.	.	.	.	.	.	.	.	.
8GG/	4 2	.	4a/	.	4cc\	.	.	.	.	.	.	.	4a/	4dd\
8GG/	.	.	.	.	.	.	.	.	.	.	.	.	.	.
8GG/	9 7	.	4fn/	.	4a\	.	.	.	.	.	.	.	4f/	4cc\
8GG/J	.	.	.	.	.	.	.	.	.	.	.	.	.	.
=71	=71	=71	=71	=71	=71	=71	=71	=71	=71	=71	=71	=71	=71	=71
8GG/L	9 6	.	4e/	.	4g/	.	.	.	.	.	2.ryy	2.g/	4e/	4b\
8GG/	.	.	.	.	.	.	.	.	.	.	.	.	.	.
8GG/	x 7	.	4f/	.	4a/	.	.	.	.	.	.	.	4f/	4cc\
8GG/	.	.	.	.	.	.	.	.	.	.	.	.	.	.
8GG/	7 5	.	4d/	.	4fn/	.	.	.	.	.	.	.	4d/	4a\
8GG/J	.	.	.	.	.	.	.	.	.	.	.	.	.	.
*Xtremolo	*	*	*	*	*	*	*	*	*	*	*	*	*	*
!	!	!	!	!	!LO:PB:g=original	!	!	!	!	!	!	!	!	!
=72	=72	=72	=72	=72	=72	=72	=72	=72	=72	=72	=72	=72	=72	=72
!LO:TX:a:i:t=Tutti	!	!	!	!	!	!	!	!	!	!	!	!	!	!
!	!	!	!	!LO:DY:rj:t=f.	!	!LO:DY:rj	!	!	!	!	!	!	!	!
4C/	.	.	4cc 4e 4G/	f	4cc 4e 4G/	f	8C/	Quo-	8cc\	Quo-	2.ryy	4cc\	4e/	4g/
.	.	.	.	.	.	.	8C/	-ni-	8cc\	-ni-	.	.	.	.
4r	.	.	4r	.	4r	.	4E\	-am	4cc\	-am	.	4r	4r	4a/
8C/L	-	.	8.g/L	p	8.b-XT\L	p	4G\	tu	4b-X\	tu	.	4r	4r	4b/
8C/J	7	.	.	.	.	.	.	.	.	.	.	.	.	.
.	.	.	32f/LL	.	32a\LL	.	.	.	.	.	.	.	.	.
.	.	.	32g/JJJ	.	32b-\JJJ	.	.	.	.	.	.	.	.	.
=73	=73	=73	=73	=73	=73	=73	=73	=73	=73	=73	=73	=73	=73	=73
*tremolo	*	*	*	*	*	*	*	*	*	*	*	*	*	*
!	!	!	!	!	!	!	!	!	!	!	!	!LO:TX:a:t=1.	!LO:TX:a:t=2	!
!	!	!	!	!	!	!	!	!	!	!	!	!	!LO:N:vis=0	!
8C/L	6 4	p	8f/	.	8a/	.	4F\	So-	4a\	So-	2.ryy	2.r	1.r	4cc\
8C/	.	.	8r	.	8r	.	.	.	.	.	.	.	.	.
8C/	.	.	8a/	.	8ff\	.	4A\	.	4ff\	.	.	.	.	4r
8C/	.	.	8r	.	8r	.	.	.	.	.	.	.	.	.
8C/	5 3	.	8g/	.	8ee\	.	4G\	-lus	4ee\	-lus	.	.	.	4r
8C/J	.	.	8r	.	8r	.	.	.	.	.	.	.	.	.
!	!	!	!	!	!	!	!	!	!	!	!	!LO:LB:g=original	!	!
=74	=74	=74	=74	=74	=74	=74	=74	=74	=74	=74	=74	=74	=74	=74
!	!	!	!	!	!	!	!	!	!	!	!	!	!	!LO:TX:a:t=2
!	!	!	!	!	!	!	!	!	!	!	!	!	!	!LO:N:vis=0
8C/L	4 2	.	8f/	.	8dd\	.	4F\	So-	4dd\	So-	2.ryy	4r	.	1.r
8C/	.	.	8r	.	8r	.	.	.	.	.	.	.	.	.
8C/	6 3	.	8e/	.	8cc\	.	4E\	.	4cc\	.	.	4r	.	.
8C/	.	.	8r	.	8r	.	.	.	.	.	.	.	.	.
8C/	4 2	.	8d/	.	8b\	.	4D\	-lus	4bn\	-lus	.	4dd\	.	.
8C/J	.	.	8r	.	8r	.	.	.	.	.	.	.	.	.
=75	=75	=75	=75	=75	=75	=75	=75	=75	=75	=75	=75	=75	=75	=75
8C/L	.	f	4e/	.	4cc\	.	8C/	Sanc-	8cc\	Sanc-	2.ryy	8.cc\L	4e/	.
8C/	.	.	.	.	.	.	8C/	-tus	8cc\	-tus	.	.	.	.
.	.	.	.	.	.	.	.	.	.	.	.	16cc\Jk	.	.
8C/	.	.	8r	.	8r	.	4r	.	4r	.	.	4cc\	4cc\	.
8C/	.	.	16cc\LL	f	16ee\LL	.	.	.	.	.	.	.	.	.
.	.	.	16dd\JJ	.	16ff\JJ	.	.	.	.	.	.	.	.	.
!	!	!	!LO:LB:g=original	!	!	!	!	!	!	!	!	!	!	!
8C/	.	.	8ee\L	.	8gg\L	.	4c\	Tu	4gg\	tu	.	4r	4ee\	.
8C/J	.	.	8ee\J	.	8gg\J	.	.	.	.	.	.	.	.	.
=76	=76	=76	=76	=76	=76	=76	=76	=76	=76	=76	=76	=76	=76	=76
8C/L	.	.	8ee\	.	8gg\	.	2c\	So-	2gg\	So-	2.ryy	2.gg\	2.ee\	4cc\
8C/	.	.	4cc\	.	4ee\	.	.	.	.	.	.	.	.	.
8C/	.	.	.	.	.	.	.	.	.	.	.	.	.	4ee\
8C/	.	.	4g\	.	4cc\	.	.	.	.	.	.	.	.	.
8C/	.	.	.	.	.	.	4c\	-lus	4gg\	-lus	.	.	.	4gg\
8C/J	.	.	8e/	.	8g/	.	.	.	.	.	.	.	.	.
*Xtremolo	*	*	*	*	*	*	*	*	*	*	*	*	*	*
!	!	!	!	!	!	!	!LO:LB:g=original	!	!	!	!	!	!LO:LB:g=original	!
=77	=77	=77	=77	=77	=77	=77	=77	=77	=77	=77	=77	=77	=77	=77
!LO:TX:t=P:problem:mixed beam	!	!	!	!	!	!	!	!	!	!	!	!	!	!
.	.	.	.	.	8qqb/	.	.	.	.	.	.	.	.	.
8F\L	.	.	8f/L	.	8a/L	.	4F\	San-	8ff\L	Do-	2.ryy	8aa\L	4dd\	2.gg\
8F\	.	.	16e/L	.	16g/L	.	.	.	16ee\L	.	.	16gg\L	.	.
.	.	.	16d/JJ	.	16f/JJ	.	.	.	16dd\JJ	.	.	16ff\JJ	.	.
8G\	.	.	4c/	.	4e/	.	4G\	.	4cc\	.	.	4ee\	4cc\	.
8G\	.	.	.	.	.	.	.	.	.	.	.	.	.	.
8GG/	.	.	4B/	.	4dT/	.	4GG/	.	4b\	-mi-	.	4dd\	4b\	.
8GG/J	.	.	.	.	.	.	.	.	.	.	.	.	.	.
=78	=78	=78	=78	=78	=78	=78	=78	=78	=78	=78	=78	=78	=78	=78
!LO:TX:a:t=P:problem:takty 78-83 zapisane repetycją, łuk na górze	!	!	!	!	!LO:TX:a:t=P:problem:takty 78-83 zapisane repetycją	!LO:DY:rj	!	!	!	!	!	!	!	!
4C/	.	.	4c/	.	4ccyy 4eyy 4G/yy	f	4C/	-ctus	4cc\	-nus	2.ryy	4cc\	4cc\	4ff\
4r	.	.	4r	.	4ryy	.	4r	.	4r	.	.	4r	4r	4ee\
8C/L	-	.	8.g/L	.	8.b-XT\Lyy	p	4G\	Tu	4b-X\	tu	.	4r	4r	4dd\
8C/J	7	.	.	.	.	.	.	.	.	.	.	.	.	.
.	.	.	32f/LL	.	32a\LLyy	.	.	.	.	.	.	.	.	.
.	.	.	32g/JJJ	.	32b-\JJJyy	.	.	.	.	.	.	.	.	.
=79	=79	=79	=79	=79	=79	=79	=79	=79	=79	=79	=79	=79	=79	=79
*tremolo	*	*	*	*	*	*	*	*	*	*	*	*	*	*
!	!	!	!	!	!	!	!	!	!	!	!	!LO:TX:a:t=1	!LO:TX:a:t=2	!LO:TX:a:t=P:problem:takty 79-84 zapisane repetycją, linia przerywana na górze
!	!	!	!	!	!	!	!	!	!	!	!	!	!LO:N:vis=0	!
8C/L	6 4	p	8f/	.	8a/yy	.	4F\	So-	4a\	So-	2.ryy	2.r	1.r	4cc\yy
8C/	.	.	8r	.	8ryy	.	.	.	.	.	.	.	.	.
8C/	.	.	8a/	.	8ff\yy	.	4A\	.	(4ff\	-lus	.	.	.	4ryy
8C/	.	.	8r	.	8ryy	.	.	.	.	.	.	.	.	.
8C/	5 3	.	8g/	.	8ee\yy	.	4G\	-lus	4ee\)	al-	.	.	.	4ryy
8C/J	.	.	8r	.	8ryy	.	.	.	.	.	.	.	.	.
!	!	!	!	!	!	!	!	!	!LO:LB:g=original	!	!	!	!	!
=80	=80	=80	=80	=80	=80	=80	=80	=80	=80	=80	=80	=80	=80	=80
!	!	!	!	!	!	!	!	!	!	!	!	!	!	!LO:TX:a:t=2
!	!	!	!	!	!	!	!	!	!	!	!	!	!	!LO:N:vis=0
8C/L	4 2	.	8f/	.	8dd\yy	.	4F\	San-	4dd\	-tiſ-	2.ryy	4r	.	1.ryy
8C/	.	.	8r	.	8ryy	.	.	.	.	.	.	.	.	.
8C/	6 3	.	8e/	.	8cc\yy	.	4E\	.	4cc\	.	.	4r	.	.
8C/	.	.	8r	.	8ryy	.	.	.	.	.	.	.	.	.
8C/	4 2	.	8d/	.	8b\yy	.	4D\	.	4bn\	-si-	.	4dd\	.	.
8C/J	.	.	8r	.	8ryy	.	.	.	.	.	.	.	.	.
=81	=81	=81	=81	=81	=81	=81	=81	=81	=81	=81	=81	=81	=81	=81
!	!	!	!	!LO:DY:t=f	!	!	!	!	!	!	!	!	!	!
8C/L	.	f	4e/	f	4cc\yy	.	4E\	-ctus	4cc\	-mus	2.ryy	8.cc\L	4e/	.
8C/	.	.	.	.	.	.	.	.	.	.	.	.	.	.
.	.	.	.	.	.	.	.	.	.	.	.	16cc\Jk	.	.
8C/	.	.	8r	.	8ryy	.	4r	.	4r	.	.	4cc\	4cc\	.
8C/	.	.	16cc\LL	p	16ee\LLyy	.	.	.	.	.	.	.	.	.
.	.	.	16dd\JJ	.	16ff\JJyy	.	.	.	.	.	.	.	.	.
8C/	.	.	8ee\L	.	8gg\Lyy	.	4c\	Tu	4gg\	tu	.	4r	4ee\	.
8C/J	.	.	8ee\J	.	8gg\Jyy	.	.	.	.	.	.	.	.	.
!	!	!	!LO:LB:g=original	!	!	!	!	!	!	!	!	!	!	!
=82	=82	=82	=82	=82	=82	=82	=82	=82	=82	=82	=82	=82	=82	=82
8C/L	.	.	8ee\	.	8gg\yy	.	4c\	So-	4gg\	So-	2.ryy	2.gg\	2.ee\	4cc\yy
8C/	.	.	4cc\	.	4ee\yy	.	.	.	.	.	.	.	.	.
8C/	.	.	.	.	.	.	4C/	-lus	4gg\	-lus	.	.	.	4ee\yy
8C/	.	.	4g/	.	4cc\yy	.	.	.	.	.	.	.	.	.
8C/	.	.	.	.	.	.	8c\	Je-	8gg\	Je-	.	.	.	4gg\yy
8C/J	.	.	8e/	.	8g/yy	.	8c\	-su	8gg\	-su	.	.	.	.
*Xtremolo	*	*	*	*	*	*	*	*	*	*	*	*	*	*
=83	=83	=83	=83	=83	=83	=83	=83	=83	=83	=83	=83	=83	=83	=83
!LO:TX:t=P:problem:mixed beam	!	!	!	!	!	!	!	!	!	!	!	!	!	!
.	.	.	.	.	8qqb/yy	.	.	.	.	.	.	.	.	.
8F\L	.	.	8f/L	.	8a/Lyy	.	4F\	Chri-	8ff\L	Chri-	2.ryy	8aa\L	4dd\	2.gg\yy
8F\	.	.	16e/L	.	16g/Lyy	.	.	.	16ee\L	.	.	16gg\L	.	.
.	.	.	16d/JJ	.	16f/JJyy	.	.	.	16dd\JJ	.	.	16ff\JJ	.	.
8G\	.	.	4c/	.	4e/yy	.	4G\	.	4cc\	.	.	4ee\	4cc\	.
8G\	.	.	.	.	.	.	.	.	.	.	.	.	.	.
8GG/	.	.	4B/	.	4dT/yy	.	4GG/	.	4b\	.	.	4dd\	4g\	.
8GG/J	.	.	.	.	.	.	.	.	.	.	.	.	.	.
!LO:LB:g=original	!	!	!	!	!LO:LB:g=original	!	!	!	!	!	!	!	!	!
=84	=84	=84	=84	=84	=84	=84	=84	=84	=84	=84	=84	=84	=84	=84
*tremolo	*	*	*	*	*	*	*	*	*	*	*	*	*	*
8C/L	.	.	4c/	.	4c/	.	4C/	-ste	4cc\	-ste	2.ryy	4cc\	2.e/	4ff\yy
8C/	.	.	.	.	.	.	.	.	.	.	.	.	.	.
8C/	.	.	8r	.	8r	.	4r	.	4r	.	.	4r	.	4ee\yy
8C/	.	.	8e/L	.	8cc\L	.	.	.	.	.	.	.	.	.
8C/	.	.	8e/	.	8cc\	.	4r	.	4r	.	.	4r	.	4dd\yy
8C/J	.	.	8e/J	.	8cc\J	.	.	.	.	.	.	.	.	.
=85	=85	=85	=85	=85	=85	=85	=85	=85	=85	=85	=85	=85	=85	=85
!	!	!	!LO:TX:t=P:problem:mixed beam	!	!	!	!	!	!	!	!	!	!	!
8C/L	.	.	(8g/L	.	(8ee\L	.	2.c\	Cum	2.ee\	Cum	2.ryy	4cc\	2.cc\	2.cc\
8C/	.	.	8e/)	.	8cc\	.	.	.	.	.	.	.	.	.
8C/	.	.	8e'/	.	8cc')\	.	.	.	.	.	.	4r	.	.
8C/	.	.	8cc'\	.	8ee'\	.	.	.	.	.	.	.	.	.
8C/	.	.	8cc'\	.	8ee'\	.	.	.	.	.	.	4r	.	.
8C/J	.	.	8cc'\J	.	8ee'\J	.	.	.	.	.	.	.	.	.
!	!	!	!	!	!	!	!	!	!	!	!	!LO:LB:g=original	!	!
=86	=86	=86	=86	=86	=86	=86	=86	=86	=86	=86	=86	=86	=86	=86
8C/L	.	.	(8ee\L	.	(8gg\L	.	2c\	Sanc-	2ee\	San-	2.ryy	4cc\	2.ee\	2.ee\
8C/	.	.	8cc\)	.	8ee\	.	.	.	.	.	.	.	.	.
8C/	.	.	8ee'\	.	8ee')\	.	.	.	.	.	.	4r	.	.
8C/	.	.	8ee'\	.	8gg'\	.	.	.	.	.	.	.	.	.
8C/	.	.	8ee'\	.	8gg'\	.	4c\	-to	4ee\	-cto	.	4r	.	.
8C/J	.	.	8ee'\J	.	8gg'\J	.	.	.	.	.	.	.	.	.
!	!	!	!	!	!	!	!LO:LB:g=original	!	!	!	!	!	!	!
=87	=87	=87	=87	=87	=87	=87	=87	=87	=87	=87	=87	=87	=87	=87
!	!	!	!LO:TX:t=P:problem:mixed beam	!	!	!	!	!	!	!	!	!	!	!
8C/L	.	.	8ee\L	.	8ccc\	.	2c\	Spi-	2ee\	Spi-	2.ryy	4cc\	2.ee\	2.gg\
8C/	.	.	8e/J	.	4gg\	.	.	.	.	.	.	.	.	.
*	*	*	*tremolo	*	*	*	*	*	*	*	*	*	*	*
8C/	.	.	8e/L	.	.	.	.	.	.	.	.	4cc\	.	.
8C/	.	.	8e/	.	4ee\	.	.	.	.	.	.	.	.	.
8C/	.	.	8e/	.	.	.	4c\	-ri-	4ee\	-ri-	.	4cc\	.	.
8C/J	.	.	8e/J	.	8cc\	.	.	.	.	.	.	.	.	.
=88	=88	=88	=88	=88	=88	=88	=88	=88	=88	=88	=88	=88	=88	=88
8BB/L	6	.	8d/L	.	4gg\	.	4B\	-tu	4dd\	-tu	2.ryy	4dd\	2.g/	2.ccc\
8BB/	.	.	8d/	.	.	.	.	.	.	.	.	.	.	.
8BB/	.	.	8d/	.	8r	.	4r	.	4r	.	.	4r	.	.
8BB/	.	.	8d/	.	8gg\L	.	.	.	.	.	.	.	.	.
8BB/	.	.	8d/	.	8gg\	.	4B\	in	4dd\	in	.	4r	.	.
8BB/J	.	.	8d/J	.	8gg\J	.	.	.	.	.	.	.	.	.
!	!	!	!	!	!	!	!	!	!LO:LB:g=original	!	!	!	!	!
=89	=89	=89	=89	=89	=89	=89	=89	=89	=89	=89	=89	=89	=89	=89
8BB/L	.	.	8d/L	.	(8bb\L	.	4.B\	glo-	4.dd\	glo-	2.ryy	4dd\	2.b\	2.dd\
8BB/	.	.	8d/	.	8gg\	.	.	.	.	.	.	.	.	.
8BB/	.	.	8d/	.	8gg')\	.	.	.	.	.	.	4r	.	.
8BB/	.	.	8d/	.	8bb'\	.	8B\	-ri-	8dd\	-ri-	.	.	.	.
8BB/	.	.	8d/	.	8bb'\	.	4B\	-a	4dd\	-a	.	4r	.	.
8BB/J	.	.	8d/J	.	8bb'\J	.	.	.	.	.	.	.	.	.
=90	=90	=90	=90	=90	=90	=90	=90	=90	=90	=90	=90	=90	=90	=90
8BB/L	.	.	8d/L	.	(8ddd\L	.	2B\	De-	2dd\	De-	2.ryy	4dd\	2.dd\	2.dd\
8BB/	.	.	8d/	.	8bb\	.	.	.	.	.	.	.	.	.
8BB/	.	.	8d/	.	8bb')\	.	.	.	.	.	.	4r	.	.
8BB/	.	.	8d/	.	8ddd'\	.	.	.	.	.	.	.	.	.
8BB/	.	.	8d/	.	8ddd'\	.	4B\	-i	4dd\	-i	.	4r	.	.
8BB/J	.	.	8d/J	.	8ddd'\J	.	.	.	.	.	.	.	.	.
=91	=91	=91	=91	=91	=91	=91	=91	=91	=91	=91	=91	=91	=91	=91
8BB/L	.	.	8d/L	.	8ddd\	.	2.B\	Pa-	2.ffn\	Pa-	2.ryy	4dd\	2.dd\	2.gg\
8BB/	.	.	8d/	.	4bb\	.	.	.	.	.	.	.	.	.
8BB/	.	.	8d/	.	.	.	.	.	.	.	.	4dd\	.	.
8BB/	.	.	8d/	.	4gg\	.	.	.	.	.	.	.	.	.
8BB/	.	.	8d/	.	.	.	.	.	.	.	.	4dd\	.	.
8BB/J	.	.	8d/J	.	8ff\	.	.	.	.	.	.	.	.	.
*	*	*	*Xtremolo	*	*	*	*	*	*	*	*	*	*	*
!	!	!	!LO:PB:g=original	!	!LO:LB:g=original	!	!	!	!	!	!	!	!	!
=92	=92	=92	=92	=92	=92	=92	=92	=92	=92	=92	=92	=92	=92	=92
8C\L	.	.	8c/	.	4ee\	.	4c\	-tris	4ee\	-tris	2.ryy	4dd\	2cc\	2.ff\
8E\J	6	.	4cc\	.	.	.	.	.	.	.	.	.	.	.
8E\L	.	.	.	.	8r	.	4r	.	4r	.	.	8cc\L	.	.
8E\	.	.	4cc\	.	8gg\L	.	.	.	.	.	.	8cc\	.	.
8E\	.	.	.	.	8gg\	.	4r	.	4r	.	.	8cc\	4ee\	.
8E\J	.	.	8cc\	.	8gg\J	.	.	.	.	.	.	8cc\J	.	.
=93	=93	=93	=93	=93	=93	=93	=93	=93	=93	=93	=93	=93	=93	=93
!	!	!	!	!	!	!	!	!	!	!	!	!	!	!LO:TX:a:t=P:problem:takt wzięty ołówkiem w repetycję
8C\L	.	.	8cc\	.	8gg\	.	2.E\	a-	2.gg\	a-	2.ryy	2cc\	2.gg\	2ee\
8E\J	6	.	4cc\	.	(4ee\	.	.	.	.	.	.	.	.	.
8E\L	.	.	.	.	.	.	.	.	.	.	.	.	.	.
8E\	.	.	4cc\	.	8cc\	.	.	.	.	.	.	.	.	.
8E\	.	.	.	.	8cc\L)	.	.	.	.	.	.	4cc\	.	4gg\
8E\J	.	.	8cc\	.	8b-X\J	.	.	.	.	.	.	.	.	.
!	!	!	!	!	!	!	!	!	!	!	!	!	!	!LO:LB:g=original
=94	=94	=94	=94	=94	=94	=94	=94	=94	=94	=94	=94	=94	=94	=94
8F\L	.	.	8cc\	.	8a/	.	2F\	-men	4aa\	.	2.ryy	4cc\	2ff\	2ccc\
8F\	.	.	4cc\	.	4aa\	.	.	.	.	.	.	.	.	.
8F\	.	.	.	.	.	.	.	.	4ff\	.	.	4r	.	.
8F\	.	.	4cc\	.	4ff\	.	.	.	.	.	.	.	.	.
8F\	.	.	.	.	.	.	4F\	a-	4dd\	.	.	4r	4dd\	4bb-X\
8F\J	.	.	8cc\	.	8dd\	.	.	.	.	.	.	.	.	.
=95	=95	=95	=95	=95	=95	=95	=95	=95	=95	=95	=95	=95	=95	=95
8G\L	.	.	16g\LL	.	2g/	.	2G\	.	2ee\	-men	2.ryy	2ee\	2cc\	2ee\
.	.	.	16ee\	.	.	.	.	.	.	.	.	.	.	.
8G\	.	.	16g\	.	.	.	.	.	.	.	.	.	.	.
.	.	.	16ee\JJ	.	.	.	.	.	.	.	.	.	.	.
8G\	.	.	16g\LL	.	.	.	.	.	.	.	.	.	.	.
.	.	.	16ee\	.	.	.	.	.	.	.	.	.	.	.
8G\J	.	.	16g\	.	.	.	.	.	.	.	.	.	.	.
.	.	.	16ee\JJ	.	.	.	.	.	.	.	.	.	.	.
*Xtremolo	*	*	*	*	*	*	*	*	*	*	*	*	*	*
8GG/L	.	.	16d/LL	.	4ddT\	.	4GG/	.	4dd\	a-	.	4dd\	4b\	4dd\
.	.	.	16b/	.	.	.	.	.	.	.	.	.	.	.
8GG/J	.	.	16d/	.	.	.	.	.	.	.	.	.	.	.
.	.	.	16b/JJ	.	.	.	.	.	.	.	.	.	.	.
!LO:LB:g=original	!	!	!	!	!	!	!	!	!	!	!	!	!LO:LB:g=original	!
=96	=96	=96	=96	=96	=96	=96	=96	=96	=96	=96	=96	=96	=96	=96
!	!	!	!LO:TX:b:t=P:problem:nuta e bez caudy	!	!	!	!	!	!	!	!	!	!	!
4C/	.	.	4cc 4e/	.	4cc\	.	4C/	-men	4ee\	-men	2.ryy	4cc\	4cc\	4cc\
4r	.	.	4r	.	8r	.	4r	.	4r	.	.	4r	4r	4r
.	.	.	.	.	8g/L	.	.	.	.	.	.	.	.	.
4r	.	.	4r	.	8g/	.	4r	.	4r	.	.	4r	4r	4r
.	.	.	.	.	8g/J	.	.	.	.	.	.	.	.	.
!	!	!	!	!	!	!	!	!	!	!	!	!LO:LB:g=original	!	!
=97	=97	=97	=97	=97	=97	=97	=97	=97	=97	=97	=97	=97	=97	=97
!	!	!	!	!	!	!LO:DY:t=f	!	!	!	!	!	!LO:TX:a:t=2.	!LO:TX:a:t=8.	!LO:TX:a:t=8
!	!	!	!	!	!	!	!LO:N:vis=00	!	!LO:N:vis=00	!	!	!LO:N:vis=0	!LO:N:vis=00	!LO:N:vis=00
4C/	.	.	4e 4G/	.	8cc/L	f	0.r	.	0.r	.	2.ryy	1.r	0.r	0.r
.	.	.	.	.	8g/J	.	.	.	.	.	.	.	.	.
*	*	*	*	*	*tremolo	*	*	*	*	*	*	*	*	*
4r	.	.	4r	.	8g/L	p	.	.	.	.	.	.	.	.
.	.	.	.	.	8g/	.	.	.	.	.	.	.	.	.
4r	.	.	4r	.	8g/	.	.	.	.	.	.	.	.	.
.	.	.	.	.	8g/J	.	.	.	.	.	.	.	.	.
=98	=98	=98	=98	=98	=98	=98	=98	=98	=98	=98	=98	=98	=98	=98
!	!	!	!	!	!	!LO:DY:t=f	!	!	!	!	!	!	!	!
4C/	.	.	4e 4G/	.	8cc/L	f	.	.	.	.	2.ryy	.	.	.
.	.	.	.	.	8g/J	.	.	.	.	.	.	.	.	.
4r	.	.	4r	.	8g/L	p	.	.	.	.	.	.	.	.
.	.	.	.	.	8g/	.	.	.	.	.	.	.	.	.
4r	.	.	4r	.	8g/	.	.	.	.	.	.	.	.	.
.	.	.	.	.	8g/J	.	.	.	.	.	.	.	.	.
*	*	*	*	*	*Xtremolo	*	*	*	*	*	*	*	*	*
=99	=99	=99	=99	=99	=99	=99	=99	=99	=99	=99	=99	=99	=99	=99
4r	.	.	4r	.	2cc\	.	.	.	.	.	2.ryy	4r	.	.
4C/	.	.	4e 4G/	.	.	.	.	.	.	.	.	4cc\	.	.
4C/	.	.	4e 4G/	.	8.cc\L	.	.	.	.	.	.	4cc\	.	.
.	.	.	.	.	32b\LL	.	.	.	.	.	.	.	.	.
.	.	.	.	.	32cc\JJJ	.	.	.	.	.	.	.	.	.
!	!	!	!LO:LB:g=original	!	!	!	!	!	!	!	!	!	!	!
=100	=100	=100	=100	=100	=100	=100	=100	=100	=100	=100	=100	=100	=100	=100
4BB/	.	.	4g/	.	4dd\	.	.	.	.	.	2.ryy	4dd\	.	.
4r	.	.	4r	.	8r	.	.	.	.	.	.	4r	.	.
.	.	.	.	.	8g/L	.	.	.	.	.	.	.	.	.
4r	.	.	4r	.	8g/	.	.	.	.	.	.	4r	.	.
.	.	.	.	.	8g/J	.	.	.	.	.	.	.	.	.
=101	=101	=101	=101	=101	=101	=101	=101	=101	=101	=101	=101	=101	=101	=101
!	!	!	!	!	!LO:TX:t=P:problem:mixed beam	!LO:DY:t=f	!	!	!	!	!	!LO:TX:a:t=2.	!	!
!	!	!	!	!	!	!	!LO:N:vis=00	!	!LO:N:vis=00	!	!	!LO:N:vis=0	!LO:N:vis=00	!LO:N:vis=00
4BB/	.	.	4d 4G/	.	8dd\L	f	0.r	.	0.r	.	2.ryy	1.r	0.r	0.r
.	.	.	.	.	8g/J	.	.	.	.	.	.	.	.	.
*	*	*	*	*	*tremolo	*	*	*	*	*	*	*	*	*
4r	.	.	4r	.	8g/L	p	.	.	.	.	.	.	.	.
.	.	.	.	.	8g/	.	.	.	.	.	.	.	.	.
4r	.	.	4r	.	8g/	.	.	.	.	.	.	.	.	.
.	.	.	.	.	8g/J	.	.	.	.	.	.	.	.	.
!	!	!	!	!	!LO:LB:g=original	!	!	!	!	!	!	!	!	!
=102	=102	=102	=102	=102	=102	=102	=102	=102	=102	=102	=102	=102	=102	=102
!	!	!	!	!	!LO:TX:t=P:problem:mixed beam	!LO:DY:t=f.	!	!	!	!	!	!	!	!
4BB/	6	.	4d 4G/	.	8dd\L	f	.	.	.	.	2.ryy	.	.	.
.	.	.	.	.	8g/J	.	.	.	.	.	.	.	.	.
4r	.	.	4r	.	8g/L	p	.	.	.	.	.	.	.	.
.	.	.	.	.	8g/	.	.	.	.	.	.	.	.	.
4r	.	.	4r	.	8g/	.	.	.	.	.	.	.	.	.
.	.	.	.	.	8g/J	.	.	.	.	.	.	.	.	.
*	*	*	*	*	*Xtremolo	*	*	*	*	*	*	*	*	*
=103	=103	=103	=103	=103	=103	=103	=103	=103	=103	=103	=103	=103	=103	=103
4r	.	.	4r	.	2dd\	.	.	.	.	.	2.ryy	4r	.	.
4BB/	6 5	.	4g/	p	.	.	.	.	.	.	.	4dd\	.	.
4BB/	.	.	4g/	.	8.ddT\L	.	.	.	.	.	.	4dd\	.	.
.	.	.	.	.	32cc\LL	.	.	.	.	.	.	.	.	.
.	.	.	.	.	32dd\JJJ	.	.	.	.	.	.	.	.	.
=104	=104	=104	=104	=104	=104	=104	=104	=104	=104	=104	=104	=104	=104	=104
4C/	.	.	4g/	.	4ee\	.	.	.	.	.	2.ryy	4ee\	.	.
4r	.	.	4r	.	8r	.	.	.	.	.	.	4r	.	.
.	.	.	.	.	8gg\L	f	.	.	.	.	.	.	.	.
4r	.	.	4r	.	8gg\	.	.	.	.	.	.	4r	.	.
.	.	.	.	.	8gg\J	.	.	.	.	.	.	.	.	.
!	!	!	!	!	!	!	!LO:PB:g=original	!	!LO:PB:g=original	!	!	!	!	!
=105	=105	=105	=105	=105	=105	=105	=105	=105	=105	=105	=105	=105	=105	=105
4F\	4 2	.	4gg\ 4b\ 4d\	.	(8bb\L	.	4F\	A-	4dd\	a-	2.ryy	4g/	2.dd\	2.bb\
.	.	.	.	.	8gg\	.	.	.	.	.	.	.	.	.
4r	.	.	4r	.	8gg')\	.	4F\	-men	4dd\	-men	.	4r	.	.
.	.	.	.	.	8gg'\	.	.	.	.	.	.	.	.	.
4r	.	.	4r	.	8bb'\	.	4r	.	4r	.	.	4r	.	.
.	.	.	.	.	8gg'\J	.	.	.	.	.	.	.	.	.
=106	=106	=106	=106	=106	=106	=106	=106	=106	=106	=106	=106	=106	=106	=106
*	*	*	*	*	*	*	*	*	*	*ij	*	*	*	*
4E\	6	.	4ee\ 4cc\ 4g\	.	8ccc\L	.	4E\	A-	4ee\	a-	2.ryy	4g/	2.ee\	2.ccc\
.	.	.	.	.	8gg\J	.	.	.	.	.	.	.	.	.
*	*	*	*	*	*tremolo	*	*	*	*	*	*	*	*	*
4r	.	.	4r	.	8gg\L	.	4E\	-men	4ee\	-men	.	4r	.	.
.	.	.	.	.	8gg\	.	.	.	.	.	.	.	.	.
*	*	*	*	*	*	*	*	*	*	*Xij	*	*	*	*
4r	.	.	4r	.	8gg\	.	4r	.	4r	.	.	4r	.	.
.	.	.	.	.	8gg\J	.	.	.	.	.	.	.	.	.
!LO:LB:g=original	!	!	!	!	!	!	!	!	!	!	!	!	!	!
=107	=107	=107	=107	=107	=107	=107	=107	=107	=107	=107	=107	=107	=107	=107
*	*	*	*	*	*	*	*	*ij	*	*	*	*	*	*
4F\	4 2	.	4gg\ 4b\ 4d\	.	8bb\L	.	4F\	A-	4dd\	a-	2.ryy	4g/	2.dd\	2.bb\
.	.	.	.	.	8gg\	.	.	.	.	.	.	.	.	.
4r	.	.	4r	.	8gg\	.	4F\	-men	4dd\	-men	.	4r	.	.
.	.	.	.	.	8gg\	.	.	.	.	.	.	.	.	.
4r	.	.	4r	.	8bb\	.	4r	.	4r	.	.	4r	.	.
.	.	.	.	.	8gg\J	.	.	.	.	.	.	.	.	.
=108	=108	=108	=108	=108	=108	=108	=108	=108	=108	=108	=108	=108	=108	=108
*	*	*	*	*	*	*	*	*ij	*	*ij	*	*	*	*
4E\	6	.	4ee\ 4cc\ 4g\	.	8ccc\L	.	4E\	A-	4cc\	a-	2.ryy	4g/	2.ee\	2.ccc\
.	.	.	.	.	8gg\J	.	.	.	.	.	.	.	.	.
4r	.	.	4r	.	8gg\L	.	4E\	-men	4cc\	-men	.	4r	.	.
.	.	.	.	.	8gg\	.	.	.	.	.	.	.	.	.
*	*	*	*	*	*	*	*	*Xij	*	*Xij	*	*	*	*
4C/	.	.	8ee\L	.	8gg\	.	4r	.	4r	.	.	4gg\	.	.
.	.	.	8ee\J	.	8gg\J	.	.	.	.	.	.	.	.	.
*	*	*	*	*	*Xtremolo	*	*	*	*	*	*	*	*	*
!	!	!	!LO:LB:g=original	!	!	!	!	!	!	!	!	!LO:LB:g=original	!	!
=109	=109	=109	=109	=109	=109	=109	=109	=109	=109	=109	=109	=109	=109	=109
.	.	.	8qqgg/	.	.	.	.	.	.	.	.	.	.	.
!LO:TX:t=P:problem:mixed beam	!	!	!	!	!	!	!	!	!	!	!	!	!	!
8F\L	6 5	.	8ff\L	.	8aa\L	.	4F\	A-	8ff\L	a-	2.ryy	8aa\L	4dd\	4ff\
8F\	.	.	16ee\L	.	16gg\L	.	.	.	16ee\L	.	.	16gg\L	.	.
.	.	.	16dd\JJ	.	16ff\JJ	.	.	.	16dd\JJ	.	.	16ff\JJ	.	.
8G\	.	.	4cc\	.	4ee\	.	4G\	.	4cc\	.	.	4ee\	4cc\	4ee\
8G\	4	.	.	.	.	.	.	.	.	.	.	.	.	.
8GG/	3	.	4b\	.	4dd\	.	4GG/	.	4b\	.	.	4dd\	4b\	4dd\
8GG/J	.	.	.	.	.	.	.	.	.	.	.	.	.	.
!	!	!	!LO:LB:g=original	!	!	!	!	!	!	!	!	!	!	!
=110	=110	=110	=110	=110	=110	=110	=110	=110	=110	=110	=110	=110	=110	=110
!LO:TX:a:t=P:problem:takty 110-123 zapisane repetycją, łuk na górze	!	!	!	!	!	!	!	!	!	!	!	!	!	!
4C/yy	.	.	4cc\	.	4cc\	.	4C/	-men	4cc\	-men	2.ryy	4cc\	4cc\	4cc\
4ryy	.	.	4r	.	8r	p	4r	.	4r	.	.	4r	4r	4r
.	.	.	.	.	8G/L	.	.	.	.	.	.	.	.	.
4ryy	.	.	4r	.	8G/	.	4r	.	4r	.	.	4r	4r	4r
.	.	.	.	.	8G/J	.	.	.	.	.	.	.	.	.
!	!	!	!	!	!LO:LB:g=original	!	!	!	!	!	!	!	!	!
=111	=111	=111	=111	=111	=111	=111	=111	=111	=111	=111	=111	=111	=111	=111
!	!	!	!	!	!	!LO:DY:t=f	!	!	!	!	!	!LO:TX:a:t=2.	!	!
!	!	!	!	!	!	!	!LO:N:vis=00	!	!LO:N:vis=00	!	!	!LO:N:vis=0	!	!
4C/yy	.	.	4e/	.	8c/L	f	0.r	.	0.r	.	2.ryy	1.r	4e/	4cc\
.	.	.	.	.	8G/J	.	.	.	.	.	.	.	.	.
!	!	!	!	!	!	!LO:DY:t=p	!	!	!	!	!	!	!	!
*	*	*	*	*	*tremolo	*	*	*	*	*	*	*	*	*
4ryy	.	.	4r	.	8G/L	p	.	.	.	.	.	.	4cc\	4ee\
.	.	.	.	.	8G/	.	.	.	.	.	.	.	.	.
4ryy	.	.	4r	.	8G/	.	.	.	.	.	.	.	4r	4r
.	.	.	.	.	8G/J	.	.	.	.	.	.	.	.	.
=112	=112	=112	=112	=112	=112	=112	=112	=112	=112	=112	=112	=112	=112	=112
!	!	!	!	!	!	!LO:DY:t=f	!	!	!	!	!	!	!	!
4C/yy	.	.	4e/	.	8c/L	f	.	.	.	.	2.ryy	.	4e/	4cc\
.	.	.	.	.	8G/J	.	.	.	.	.	.	.	.	.
!	!	!	!	!	!	!LO:DY:t=p	!	!	!	!	!	!	!	!
4ryy	.	.	4r	.	8G/L	p	.	.	.	.	.	.	4cc\	4ee\
.	.	.	.	.	8G/	.	.	.	.	.	.	.	.	.
4ryy	.	.	4r	.	8G/	.	.	.	.	.	.	.	4r	4r
.	.	.	.	.	8G/J	.	.	.	.	.	.	.	.	.
*	*	*	*	*	*Xtremolo	*	*	*	*	*	*	*	*	*
=113	=113	=113	=113	=113	=113	=113	=113	=113	=113	=113	=113	=113	=113	=113
4ryy	.	.	4r	.	2cT/	.	.	.	.	.	2.ryy	4r	2e/	2cc\
4C/yy	.	.	4e 4G/	.	.	.	.	.	.	.	.	4cc\	.	.
4C/yy	.	.	4e 4G/	.	8.c/L	.	.	.	.	.	.	4cc\	4cc\	4ee\
.	.	.	.	.	32B/LL	.	.	.	.	.	.	.	.	.
.	.	.	.	.	32c/JJJ	.	.	.	.	.	.	.	.	.
=114	=114	=114	=114	=114	=114	=114	=114	=114	=114	=114	=114	=114	=114	=114
4BB/yy	.	.	4g/ 4G/	.	4d/	.	.	.	.	.	2.ryy	4dd\	4g/	4dd\
4ryy	.	.	4r	.	8r	.	.	.	.	.	.	4r	4b/	4dd\
.	.	.	.	.	8G/L	.	.	.	.	.	.	.	.	.
4ryy	.	.	4r	.	8G/	.	.	.	.	.	.	4r	4r	4r
.	.	.	.	.	8G/J	.	.	.	.	.	.	.	.	.
=115	=115	=115	=115	=115	=115	=115	=115	=115	=115	=115	=115	=115	=115	=115
!	!	!	!	!	!	!LO:DY:t=f	!	!	!	!	!	!LO:TX:a:t=2.	!	!
!	!	!	!	!	!	!	!LO:N:vis=00	!	!LO:N:vis=00	!	!	!LO:N:vis=0	!	!
4BB/yy	.	.	4g/	.	8d/L	f	0.r	.	0.r	.	2.ryy	1.r	4g\	4dd\
.	.	.	.	.	8G/J	.	.	.	.	.	.	.	.	.
*	*	*	*	*	*tremolo	*	*	*	*	*	*	*	*	*
!	!	!	!	!	!	!LO:DY:t=p	!	!	!	!	!	!	!	!
4ryy	.	.	4r	.	8G/L	p	.	.	.	.	.	.	4dd\	4ff\
.	.	.	.	.	8G/	.	.	.	.	.	.	.	.	.
4ryy	.	.	4r	.	8G/	.	.	.	.	.	.	.	4r	4r
.	.	.	.	.	8G/J	.	.	.	.	.	.	.	.	.
!	!	!	!	!	!	!	!	!	!	!	!	!	!	!LO:LB:g=original
=116	=116	=116	=116	=116	=116	=116	=116	=116	=116	=116	=116	=116	=116	=116
!	!	!	!	!	!	!LO:DY:t=f	!	!	!	!	!	!	!	!
4BB/yy	6	.	4g 4G/	.	8d/L	f	.	.	.	.	2.ryy	.	4b\	4dd\
.	.	.	.	.	8G/J	.	.	.	.	.	.	.	.	.
!	!	!	!	!	!	!LO:DY:t=p	!	!	!	!	!	!	!	!
4ryy	.	.	4r	.	8G/L	p	.	.	.	.	.	.	4dd\	4ff\
.	.	.	.	.	8G/	.	.	.	.	.	.	.	.	.
4ryy	.	.	4r	.	8G/	.	.	.	.	.	.	.	4r	4r
.	.	.	.	.	8G/J	.	.	.	.	.	.	.	.	.
*	*	*	*	*	*Xtremolo	*	*	*	*	*	*	*	*	*
=117	=117	=117	=117	=117	=117	=117	=117	=117	=117	=117	=117	=117	=117	=117
4ryy	.	.	4r	.	2d/	.	.	.	.	.	2.ryy	4r	2g/	2dd\
4BB/yy	6 5	.	4G/	.	.	.	.	.	.	.	.	4dd\	.	.
4BB/yy	.	.	4G/	.	8.d/L	.	.	.	.	.	.	4dd\	4dd\	4ff\
.	.	.	.	.	32c/LL	.	.	.	.	.	.	.	.	.
.	.	.	.	.	32d/JJJ	.	.	.	.	.	.	.	.	.
!	!	!	!	!	!	!	!	!	!	!	!	!	!LO:LB:g=original	!
=118	=118	=118	=118	=118	=118	=118	=118	=118	=118	=118	=118	=118	=118	=118
4C/yy	.	.	4G/	.	4e/	.	.	.	.	.	2.ryy	4ee\	4cc\	4ee\
4ryy	.	.	4r	.	8r	.	.	.	.	.	.	4r	4ee\	4gg\
.	.	.	.	.	8gg\L	f	.	.	.	.	.	.	.	.
4ryy	.	.	4r	.	8gg\	.	.	.	.	.	.	4r	4ee\	4gg\
.	.	.	.	.	8gg\J	.	.	.	.	.	.	.	.	.
!	!	!	!	!	!LO:LB:g=original	!	!	!	!	!	!	!	!	!
=119	=119	=119	=119	=119	=119	=119	=119	=119	=119	=119	=119	=119	=119	=119
4F\yy	4 2	.	4gg\ 4b\ 4d\	.	8bb\L	.	4F\	A-	4dd\	a-	2.ryy	4g/	2.dd\	2gg\
.	.	.	.	.	8gg\J	.	.	.	.	.	.	.	.	.
4ryy	.	.	4r	.	8gg\L	.	4F\	-men	4dd\	-men	.	4r	.	.
.	.	.	.	.	8gg\	.	.	.	.	.	.	.	.	.
4ryy	.	.	4r	.	8gg\	.	4r	.	4r	.	.	4r	.	4bb\
.	.	.	.	.	8gg\J	.	.	.	.	.	.	.	.	.
!	!	!	!LO:LB:g=original	!	!	!	!	!	!	!	!	!	!	!
=120	=120	=120	=120	=120	=120	=120	=120	=120	=120	=120	=120	=120	=120	=120
*	*	*	*	*	*	*	*	*ij	*	*ij	*	*	*	*
4E\yy	6	.	4ee\ 4cc\ 4g\	.	8ccc\L	.	4E\	A-	4cc\	a-	2.ryy	4g/	4cc\	4ccc\
.	.	.	.	.	8gg\J	.	.	.	.	.	.	.	.	.
4ryy	.	.	4r	.	8gg\L	.	4E\	-men	4cc\	-men	.	4r	4ee\	4gg\
*	*	*	*	*	*	*	*	*Xij	*	*Xij	*	*	*	*
.	.	.	.	.	8gg\	.	.	.	.	.	.	.	.	.
4ryy	.	.	4r	.	8ccc\	.	4r	.	4r	.	.	4r	4ee\	4gg\
.	.	.	.	.	8gg\J	.	.	.	.	.	.	.	.	.
!LO:LB:g=original	!	!	!	!	!	!	!	!	!LO:LB:g=original	!	!	!	!	!
=121	=121	=121	=121	=121	=121	=121	=121	=121	=121	=121	=121	=121	=121	=121
!	!	!	!	!	!	!	!	!	!	!	!	!	!	!LO:TX:a:t=P:problem:takty 121-122 zapisane repetycją, łuk i adnotacja "bis" na górze
4F\yy	4 2	.	4gg\ 4b\ 4d\	.	8bb\L	.	4F\	A-	4dd\	a-	2.ryy	4g/	2.dd\	2gg\yy
.	.	.	.	.	8gg\J	.	.	.	.	.	.	.	.	.
*	*	*	*	*	*tremolo	*	*	*	*	*	*	*	*	*
4ryy	.	.	4r	.	8gg\L	.	4F\	-men	4dd\	-men	.	4r	.	.
.	.	.	.	.	8gg\	.	.	.	.	.	.	.	.	.
4ryy	.	.	4r	.	8gg\	.	4r	.	4r	.	.	4r	.	4bb\yy
.	.	.	.	.	8gg\J	.	.	.	.	.	.	.	.	.
*	*	*	*	*	*Xtremolo	*	*	*	*	*	*	*	*	*
!	!	!	!	!	!	!	!	!	!	!	!	!LO:LB:g=original	!	!
=122	=122	=122	=122	=122	=122	=122	=122	=122	=122	=122	=122	=122	=122	=122
*	*	*	*	*	*	*	*	*ij	*	*	*	*	*	*
4E\yy	6	.	4ee\ 4cc\ 4g\	.	8ccc\L	.	4E\	A-	4cc\	a-	2.ryy	4g/	4cc\	4ccc\yy
.	.	.	.	.	8gg\J	.	.	.	.	.	.	.	.	.
4ryy	.	.	4r	.	8gg\L	.	4E\	-men	4cc\	-men	.	4r	4ee\	4gg\yy
*	*	*	*	*	*	*	*	*Xij	*	*	*	*	*	*
.	.	.	.	.	8gg\	.	.	.	.	.	.	.	.	.
4C/yy	.	.	8ee\L	.	8ccc\	.	4r	.	4r	.	.	4cc\	4ee\	4gg\yy
.	.	.	8ee\J	.	8gg\J	.	.	.	.	.	.	.	.	.
=123	=123	=123	=123	=123	=123	=123	=123	=123	=123	=123	=123	=123	=123	=123
!LO:TX:t=P:problem:mixed beam	!	!	!	!	!	!	!	!	!	!	!	!	!	!
.	.	.	8qqgg/	.	.	.	.	.	.	.	.	.	.	.
8F\Lyy	6 5	.	8ff\L	.	8aa\L	.	4F\	a-	8ff\L	a-	2.ryy	4cc\	4dd\	4ff\
8F\yy	.	.	16ee\L	.	16gg\L	.	.	.	16ee\L	.	.	.	.	.
.	.	.	16dd\JJ	.	16ff\JJ	.	.	.	16dd\JJ	.	.	.	.	.
8G\yy	.	.	4cc\	.	4ee\	.	4G\	.	4cc\	.	.	4ee\	4cc\	4ee\
8G\yy	4	.	.	.	.	.	.	.	.	.	.	.	.	.
8GG/yy	3	.	4b\	.	4dd\	.	4GG/	.	4b\	.	.	4dd\	8g/L	4dd\
8GG/Jyy	.	.	.	.	.	.	.	.	.	.	.	.	8f/J	.
=124	=124	=124	=124	=124	=124	=124	=124	=124	=124	=124	=124	=124	=124	=124
*	*	*	*	*	*^	*	*	*	*	*	*	*	*	*
*	*	*	*	*	*	*^	*	*	*	*	*	*	*	*	*
4C/	.	.	8cc\L	.	4cc\	8ryy@	4ryy	.	4C/	-men	4cc\	-men	2.ryy	4cc\	4e/	4cc\
.	.	.	8g\	.	.	8ryy@	.	.	.	.	.	.	.	.	.	.
4r	.	.	8cc\	.	4r	4rcyy	4ryy	.	4r	.	4r	.	.	4r	4e/	4cc\
.	.	.	8g\	.	.	.	.	.	.	.	.	.	.	.	.	.
4GG/	.	.	8b\	.	4bb\	4dd\	4g\	.	4r	.	4r	.	.	4dd\	4f/	4dd\
.	.	.	8g\J	.	.	.	.	.	.	.	.	.	.	.	.	.
=125	=125	=125	=125	=125	=125	=125	=125	=125	=125	=125	=125	=125	=125	=125	=125	=125
!	!	!	!	!	!	!	!	!	!LO:TX:a:t=P:problem:partia krótsza o 3 takty	!	!LO:TX:a:t=P:problem:partia krótsza o 3 takty	!	!	!	!	!
4C/	.	.	8cc\L	.	4ccc\	4ee\	4g\	.	2.ryy	.	2.ryy	.	2.ryy	4ee\	4e/	4cc\
.	.	.	8g\	.	.	.	.	.	.	.	.	.	.	.	.	.
4r	.	.	8cc\	.	4r	4rcyy	4ryy	.	.	.	.	.	.	4r	4cc\	4ee\
.	.	.	8g\	.	.	.	.	.	.	.	.	.	.	.	.	.
4GG/	.	.	8b\	.	4bb\	4dd\	4g\	.	.	.	.	.	.	4dd\	4dd\	4ff\
.	.	.	8g\J	.	.	.	.	.	.	.	.	.	.	.	.	.
=126	=126	=126	=126	=126	=126	=126	=126	=126	=126	=126	=126	=126	=126	=126	=126	=126
*	*	*	*^	*	*	*	*	*	*	*	*	*	*	*	*	*
4C/	.	.	4cc/	2.e 2.G/	.	4ccc\	4ee\	4g\	.	2.ryy	.	2.ryy	.	2.ryy	4ee\	4cc\	4ee\
4C/	.	.	4cc/	.	.	4ccc\	4ee\	4g\	.	.	.	.	.	.	4ee\	4cc\	4ee\
4C/	.	.	4cc/	.	.	4ccc\	4ee\	4g\	.	.	.	.	.	.	4ee\	4cc\	4ee\
=127	=127	=127	=127	=127	=127	=127	=127	=127	=127	=127	=127	=127	=127	=127	=127	=127	=127
4C/	.	.	2cc/	2e 2G/	.	4ccc\	4ee\	4g\	.	2.ryy	.	2.ryy	.	2.ryy	4ee\	2cc\	2ee\
4r	.	.	.	.	.	4r	4rcyy	4ryy	.	.	.	.	.	.	4r	.	.
!	!	!	!	!	!	!LO:TX:a:t=128.:problem:po kresce taktowej	!	!	!	!	!	!	!	!	!	!	!
4r	.	.	4r	4rcyy	.	4r	4rcyy	4ryy	.	.	.	.	.	.	4r	4r	4r
*	*	*	*v	*v	*	*	*	*	*	*	*	*	*	*	*	*	*
*	*	*	*	*	*v	*v	*v	*	*	*	*	*	*	*	*	*
==	==	==	==	==	==	==	==	==	==	==	==	==	==	==
*-	*-	*-	*-	*-	*-	*-	*-	*-	*-	*-	*-	*-	*-	*-
!!!system-decoration: [g1][g2][g3][g4]s9
!!!RDF**kern: > = above
!!!RDF**kern: < = below
!!!RDF**dynam: p = "p."
!!!RDF**dynam: f = "for"
!!!ENC: Marta Lawrence
!!!END: 2020-10-08
!!!ENC: Marta Chmielewska
!!!END: 2020-06-03
